!!!!SEGMENT: pl-kk--kk-i-1--005-003_anonim--missa-gaude-virgo-patrem.krn
!!!cenid: 15xx:675
!!!COM: Anonim
!!!COM-rismID: pe30004985
!!!CDT:
!!!CNT:
!!!OPR: [Missa] Gaude virgo
!!!OTL: Patrem
!!!OMV: 003
!!!PDT:
!!!AGN:
!!!SMS-siglum: PL-Kk
!!!SMS-shelfmark: Kk.I.1
!!!SMS-shelfwork: 005-003 M
!!!SMS-variant:
!!!SMS-altvar:
!!!NIFC-rismSourceID: 300257959
!!!NIFC-islandoraID: pl-kk:1
!!!URL-pdf-islandora: https://repozytorium.nifc.pl/islandora/object/pl-kk%3A1/datastream/PDF/view
!!!URL-scan: https://polish.musicsources.pl/pl/lokalizacje/galeria/rekopisy/5736 @EN{Scan on Polish Music Herritage in Open Access Website} @PL{Skany w portalu Dziedzictwo Muzyki Polskiej w otwartym dostępie}
!!!ONB-nifc: UWAGA: Cantus (s. 30v-41r, skan 0033-0043), Altus (s. 31v-42v, skan 0224-0235), Tenor (s. 31r-42r, skan 0419-0430), Bassus (s. 30v-40r, skan 0592-0601). Części Mszy: 1. Kyrie, 2. Et in terra, 3. Patrem, 4. Sanctus, 5. Agnus Dei
!!!AIN: 1 alto 1 bass 1 soprn 1 tenor
!!!key: G:mix
**kern	**text	**kern	**text	**kern	**text	**kern	**text
*part4	*part4	*part3	*part3	*part2	*part2	*part1	*part1
*staff4	*staff4	*staff3	*staff3	*staff2	*staff2	*staff1	*staff1
*I"BASSVS	*	*I"TENOR	*	*I"ALTVS	*	*I"CANTVS	*
*I'B	*	*I'T	*	*I'A	*	*I'C	*
*ICvox	*	*ICvox	*	*ICvox	*	*ICvox	*
*Ibass	*	*Itenor	*	*Ialto	*	*Isoprn	*
*clefC4	*	*clefC3	*	*clefC2	*	*clefC2	*
*k[b-]	*	*k[b-]	*	*k[b-]	*	*k[b-]	*
*G:mix	*	*G:mix	*	*G:mix	*	*G:mix	*
*M2/1	*	*M2/1	*	*M2/1	*	*M2/1	*
*met(c|)	*	*met(c|)	*	*met(c|)	*	*met(c|)	*
=1	=1	=1	=1	=1	=1	=1	=1
!	!	!	!	!LO:TX:t=P:problem=znaki przykluczowe b-, B-	!	!LO:TX:t=P:problem=znaki przykluczowe b-, B-  	!
!LO:TX:t=P:problem=Basus zapisany w kluczu tenorowym	!	!LO:TX:t=P:problem=Tenor zapisany w kluczu altowym	!	!LO:TX:t=P:problem=Altus zapisany w kluczu mezosopranowym	!	!LO:TX:t=P:problem=Cantus zapisany w kluczu mezosopranowym	!
0r	.	0r	.	0B-	PA-	0r	.
=2	=2	=2	=2	=2	=2	=2	=2
!LO:TX:a:t=11	!	!	!	!	!	!LO:TX:t=P:problem=kreska pseudotaktowa	!
0r	.	0r	.	1G	.	0B-	PA-
.	.	.	.	0d	-trem	.	.
=3	=3	=3	=3	=3	=3	=3	=3
!	!	!	!	!	!	!LO:TX:t=P:problem=kreska pseudotaktowa	!
0r	.	0r	.	.	.	1G	-trem
.	.	.	.	0B-	om-	0d	.
=4	=4	=4	=4	=4	=4	=4	=4
0r	.	0r	.	.	.	.	.
!	!	!	!	!	!	!LO:TX:t=P:problem=kreska pseudotaktowa	!
.	.	.	.	1f	-ni-	1B-	om-
=5	=5	=5	=5	=5	=5	=5	=5
0r	.	0r	.	2d/	-po-	1f	-ni-
.	.	.	.	2.f/	-ten-	.	.
.	.	.	.	.	.	2d/	-po-
.	.	.	.	4e/	-tem	.	.
.	.	.	.	2.d/	.	2f/	.
=6	=6	=6	=6	=6	=6	=6	=6
!LO:TX:t=P:problem=kreska pseudotaktowa	!	!	!	!	!	!	!
1r	.	0r	.	.	.	1e	-ten-
.	.	.	.	8c/L	.	.	.
.	.	.	.	8B-/J	.	.	.
*	*	*	*	*custos:d	*	*	*
.	.	.	.	2c/	.	.	.
!	!	!	!	!LO:LB:g=original	!	!LO:TX:t=P:problem=kreska pseudotaktowa	!
0B-	Fa-	.	.	0d	.	00d	-tem,
=7	=7	=7	=7	=7	=7	=7	=7
.	.	1r	.	.	.	.	.
1G	-cto-	0B-	FA-	1r	.	.	.
=8	=8	=8	=8	=8	=8	=8	=8
0d	-rem	.	.	0r	.	.	.
!	!	!	!	!	!	!LO:TX:a:t=9	!
.	.	1G	-cto-	.	.	1r	.
=9	=9	=9	=9	=9	=9	=9	=9
0B-	c(ae)-	0d	-rem	0r	.	0r	.
=10	=10	=10	=10	=10	=10	=10	=10
1f	-li	1B-	.	0r	.	0r	.
2d\	et	1f	coe-	.	.	.	.
2.f\	.	.	.	.	.	.	.
=11	=11	=11	=11	=11	=11	=11	=11
.	.	2d\	-li	1r	.	0r	.
4e\	.	.	.	.	.	.	.
1d	ter-	2f\	et	.	.	.	.
.	.	1e	ter-	2r	.	.	.
2c\	-re	.	.	1g	ui-	.	.
=12	=12	=12	=12	=12	=12	=12	=12
1d	.	1d	-re,	.	.	0r	.
.	.	.	.	2f\	-ſi-	.	.
2.G/	vi-	1r	.	4g\	-bi-	.	.
.	.	.	.	4f\	.	.	.
.	.	.	.	4g\	.	.	.
*custos:G	*	*	*	*	*	*	*
4G/	-ſi-	.	.	4a\	.	.	.
!LO:LB:g=original	!	!	!	!	!	!	!
=13	=13	=13	=13	=13	=13	=13	=13
!	!	!	!	!	!	!LO:TX:t=P:problem=kreska pseudotaktowa	!
2G/	-bi-	2.d\	vi-	2b-\	.	2r	.
2G/	-li-	.	.	2b-\	-li-	1g	vi-
.	.	4d\	-ſi-	.	.	.	.
1D	-um	2d\	-bi-	1a	-um,	.	.
!	!	!	!	!	!	!LO:TX:t=P:problem=kreska pseudotaktowa	!
.	.	2d\	-li-	.	.	2f\	-ſi-
=14	=14	=14	=14	=14	=14	=14	=14
*	*	*custos:G	*	*	*	*	*
1.G	om-	2B-/	-um	1.d	om-	2g\	-bi-
!	!	!LO:LB:g=original	!	!	!	!	!
.	.	4G/	om-	.	.	1b-	-li-
.	.	4A/	.	.	.	.	.
.	.	4B-/	.	.	.	.	.
.	.	4c/	.	.	.	.	.
2G/	-ni-	4d\	.	4c/	.	4a\	-um
!	!	!	!	!	!	!LO:TX:t=P:problem=kreska pseudotaktowa	!
.	.	4e\	.	4B-/	.	4g\	.
=15	=15	=15	=15	=15	=15	=15	=15
*	*	*	*	*	*	*custos:b-	*
2F/	-um	2f\	-ni-	2c/	.	2a\	.
!	!	!	!	!	!	!LO:LB:g=original	!
2.G/	.	2d\	-um,	2B-/	-ni-	2.b-\	.
.	.	2d\	.	2G/	-u(m),	.	.
4F/	.	.	.	.	.	4a\	.
*	*	*	*	*custos:c	*	*	*
4E-X/	.	1e-X	et	2G/	et	4g\	.
!	!	!	!	!LO:LB:g=original	!	!LO:TX:t=P:problem=kreska pseudotaktowa	!
4D/	.	.	.	.	.	4f\	.
=16	=16	=16	=16	=16	=16	=16	=16
2C/	.	.	.	2c/	in-	2g\	.
2G/	et	4d\	in-	2B-/	-ui-	2.b-\	.
.	.	4c\	-ui-	.	.	.	.
2.B-\	in-	2.d\	.	4G/	-ſi-	.	.
.	.	.	.	4A/	.	4a\	om-
!	!	!	!	!	!	!LO:TX:t=P:problem=kreska pseudotaktowa	!
.	.	.	.	4B-/	.	2f\	.
4A/	.	4c\	.	4c/	.	.	.
=17	=17	=17	=17	=17	=17	=17	=17
2G/	-ui-	2B-/	-ſi-	4d/	.	2g\	.
.	.	.	.	4e/	.	.	.
2F/	-ſi-	2.c/	-bi-	2f\	.	2.a\	.
2G/	-bi-	.	.	2e-X/	-bi-	.	.
.	.	4B-/	.	.	.	4g\	.
2E/	-li-	4A/	.	2c/	-li-	1g	.
.	.	4G/	.	.	.	.	.
=18	=18	=18	=18	=18	=18	=18	=18
*custos:G	*	*	*	*	*	*	*
1D	.	2A/	.	1d	-um,	.	.
.	.	2A/	-li-	.	.	2f\	-ni-
!LO:LB:g=original	!	!	!	!	!	!LO:TX:t=P:problem=kreska pseudotaktowa	!
00G	-um,	2.G/	-um,	2r	.	00g	-um,
.	.	.	.	2d/	Et	.	.
*	*	*custos:B-	*	*	*	*	*
.	.	4A/	.	.	.	.	.
!	!	!LO:LB:g=original	!	!	!	!	!
=19	=19	=19	=19	=19	=19	=19	=19
*	*	*	*ij	*	*	*	*
.	.	2B-/	in-	2d/	in	.	.
.	.	1c	-ui-	1e-X	v-	.	.
.	.	4B-/	-ſi-	4d/	.	.	.
.	.	4A/	-bi-	4c/	.	.	.
=20	=20	=20	=20	=20	=20	=20	=20
*	*	*	*	*custos:d	*	*	*
.	.	2.B-/	-li-	2d/	-num	.	.
!	!	!	!	!LO:LB:g=original	!	!	!
.	.	.	.	2.d/	do-	.	.
.	.	4c/	-um	.	.	.	.
*	*	*	*Xij	*	*	*	*
2r	.	2d/	et	.	.	2r	.
.	.	.	.	4c/	.	.	.
1G	Et	2d/	in	4B-/	.	1b-	Et
.	.	.	.	4A/	.	.	.
=21	=21	=21	=21	=21	=21	=21	=21
.	.	2d/	u	1B-	.	.	.
!	!	!	!	!	!	!LO:TX:t=P:problem=kreska pseudotaktowa	!
2G/	in	2d/	nu(m)	.	.	2b-\	in
2F/	u-	2.f\	.	2c/	.	2a\	u-
2D/	-num	.	.	2d/	-mi-	2f/	-nu(m)
.	.	8e\L	.	.	.	.	.
.	.	8d\J	.	.	.	.	.
=22	=22	=22	=22	=22	=22	=22	=22
2F/	.	2c/	.	1A	-nu(m),	2a\	do-
!	!	!	!	!	!	!LO:TX:t=P:problem=kreska pseudotaktowa	!
2F/	do-	2d/	.	.	.	2a\	-mi-
0E-X	-mi-	2.e-X/	do-	1r	.	1.g	-nu(m)
.	.	8d/L	-mi-	.	.	.	.
.	.	8c/J	.	.	.	.	.
=23	=23	=23	=23	=23	=23	=23	=23
.	.	2B-/	-num,	1G	Ie-	.	.
*	*	*	*	*	*	*custos:f	*
!	!	!	!	!	!	!LO:TX:t=P:problem=kreska pseudotaktowa	!
.	.	2c/	.	.	.	2g\	Ie-
*	*	*custos:A	*	*	*	*	*
!	!	!	!	!	!	!LO:LB:g=original	!
0D	-nu(m)	1A	.	2.d/	-ſum	1.f	.
.	.	.	.	4c/	.	.	.
!	!	!LO:LB:g=original	!	!	!	!	!
*	*	*clefC2	*	*	*	*	*
=24	=24	=24	=24	=24	=24	=24	=24
.	.	2r	.	4d/	.	.	.
.	.	.	.	4e/	.	.	.
!	!	!	!	!	!	!LO:TX:t=P:problem=kreska pseudotaktowa	!
.	.	2A/	Ie-	4f\	.	2a\	-ſum
.	.	.	.	4d/	.	.	.
1r	.	2c/	-ſum	4e/	.	4g\	.
.	.	.	.	4d/	.	4f\	Chri-
.	.	2d/	Chr(i-	1d	.	4e/	.
.	.	.	.	.	.	4d/	.
=25	=25	=25	=25	=25	=25	=25	=25
2r	.	1A	-ſtu)m,	.	.	1e	-ſtum,
2A\	fi-	.	.	2c/	Chr(i-	.	.
*	*	*	*	*custos:a	*	*	*
!	!	!	!	!	!	!LO:TX:t=P:problem=kreska pseudotaktowa	!
2B-\	-li-	1r	.	00d	-stu)m,	0d	.
2.G/	-um	.	.	.	.	.	.
!	!	!	!	!LO:LB:g=original	!	!	!
=26	=26	=26	=26	=26	=26	=26	=26
.	.	2r	.	.	.	.	.
8F/L	.	.	.	.	.	.	.
8E/J	.	.	.	.	.	.	.
2F/	.	2a\	fi-	.	.	.	.
*custos:D	*	*	*	*	*	*	*
1G	De-	2b-\	-li-	.	.	1r	.
.	.	2.g\	-um	.	.	.	.
!LO:LB:g=original	!	!	!	!	!	!	!
=27	=27	=27	=27	=27	=27	=27	=27
1D	-i	.	.	.	.	2r	.
.	.	8f\L	.	.	.	.	.
.	.	8e\J	.	.	.	.	.
!	!	!	!	!	!	!LO:TX:t=P:problem=kreska pseudotaktowa	!
.	.	2f\	.	.	.	2a\	fi-
2r	.	1g	de-	1r	.	2b-\	-li-
1G	v-	.	.	.	.	2g\	-um
=28	=28	=28	=28	=28	=28	=28	=28
!	!	!	!	!	!	!LO:TX:t=P:problem=kreska pseudotaktowa	!
.	.	1d	-i,	2r	.	1a	de-
2F/	-ni-	.	.	2a\	fi-	.	.
2G/	-ge-	2r	.	2b-\	-li-	2g\	-i
2G/	-ni-	1d	fi-	2g\	-um	2.g\	v-
=29	=29	=29	=29	=29	=29	=29	=29
1D	-tum	.	.	1a	de-	.	.
.	.	.	.	.	.	8f/L	-ni-
.	.	.	.	.	.	8e/J	.
!	!	!	!	!	!	!LO:TX:t=P:problem=kreska pseudotaktowa	!
.	.	2d/	-li-	.	.	2f\	.
1G	.	2d/	-um	2g\	-i	2g\	.
!	!	!	!	!	!	!LO:TX:t=P:problem=kreska pseudotaktowa	!
.	.	2d/	de-	1b-	v-	2g\	-ge-
=30	=30	=30	=30	=30	=30	=30	=30
*lig	*	*	*	*	*	*	*
*	*	*	*	*	*	*custos:f	*
1F	.	1f	-i	.	.	2c/	-ni-
!	!	!	!	!	!	!LO:LB:g=original	!
.	.	.	.	4a\	.	2.f/	.
.	.	.	.	4g\	.	.	.
1B-	.	2d/	v-	2f\	-ni-	.	.
.	.	.	.	.	.	4e/	-tum;
.	.	2f/	-ni-	2.b-\	-ge-	4d/	.
.	.	.	.	.	.	4c/	.
*Xlig	*	*	*	*	*	*	*
=31	=31	=31	=31	=31	=31	=31	=31
*	*	*custos:d	*	*	*	*	*
!	!	!	!	!	!	!LO:TX:t=P:problem=kreska pseudotaktowa	!
2G/	.	2e-X/	-ge-	.	.	1B-	.
.	.	.	.	4a\	.	.	.
!	!	!LO:LB:g=original	!	!	!	!	!
*	*	*clefC3	*	*	*	*	*
2.B-/	.	2.d\	.	4g\	.	.	.
.	.	.	.	4f\	.	.	.
.	.	.	.	4g\	.	2r	.
4A/	.	4c/	.	4f\	.	.	.
4G/	.	4B-/	.	2.b-\	.	1d	v-
4F/	.	4A/	.	.	.	.	.
=32	=32	=32	=32	=32	=32	=32	=32
2G/	.	2B-/	.	.	.	.	.
.	.	.	.	4a\	.	.	.
!	!	!	!	!	!	!LO:TX:t=P:problem=kreska pseudotaktowa	!
2C/	.	2c/	-ni-	1g	.	2e/	-ni-
1D	.	1A	-tum;	.	.	1.d	-ge-
*	*	*	*	*custos:g	*	*	*
.	.	.	.	2f\	-ni-	.	.
!	!	!	!	!LO:LB:g=original	!	!	!
=33	=33	=33	=33	=33	=33	=33	=33
2r	.	2G/	.	1g	-tum,	.	.
1G	et	1B-	Et	.	.	2d/	-ni-
!	!	!	!	!	!	!LO:TX:t=P:problem=kreska pseudotaktowa	!
.	.	.	.	1r	.	0d	-tum,
*custos:G	*	*	*	*	*	*	*
2F/	ex	2A/	ex	.	.	.	.
!LO:LB:g=original	!	!	!	!	!	!	!
=34	=34	=34	=34	=34	=34	=34	=34
2G/	pa-	2B-/	pa-	2r	.	.	.
2B-\	-tre	2G/	.	1g	Et	.	.
*lig	*	*	*	*	*	*	*
1A	na-	1c	-tre	.	.	1r	.
.	.	.	.	2f\	ex	.	.
=35	=35	=35	=35	=35	=35	=35	=35
1G	.	2.B-/	na-	2g\	pa-	2r	.
.	.	.	.	2b-\	-tre	1g	Et
.	.	4c/	.	.	.	.	.
*Xlig	*	*	*	*	*	*	*
1D	-tu(m)	1d	-tum	1a	na-	.	.
!	!	!	!	!	!	!LO:TX:t=P:problem=kreska pseudotaktowa	!
.	.	.	.	.	.	2f\	ex
=36	=36	=36	=36	=36	=36	=36	=36
*	*	*	*ij	*	*	*	*
0r	.	2G/	ex	1g	-tu(m),	2g\	p(a-
.	.	2.g\	pa-	.	.	2b-\	-t)re
!	!	!	!	!	!	!LO:TX:t=P:problem=kreska pseudotaktowa	!
.	.	.	.	1r	.	1a	na-
.	.	4f\	-tre	.	.	.	.
.	.	4f\	na-	.	.	.	.
.	.	4e\	.	.	.	.	.
=37	=37	=37	=37	=37	=37	=37	=37
1.G	an-	1g	-tum	2r	.	2g\	-tum
*	*	*	*Xij	*	*	*	*
.	.	.	.	1g	an-	1b-	an-
.	.	2r	.	.	.	.	.
*	*	*custos:d	*	*	*	*	*
!	!	!	!	!	!	!LO:TX:t=P:problem=kreska pseudotaktowa	!
2G/	-te	1d	an-	2g\	-te	2b-\	-te
!	!	!LO:LB:g=original	!	!	!	!	!
=38	=38	=38	=38	=38	=38	=38	=38
2G/	om-	.	.	2g\	om-	2b-\	om-
*	*	*	*	*	*	*custos:a	*
!	!	!	!	!	!	!LO:TX:t=P:problem=kreska pseudotaktowa	!
2G/	-ni-	2d\	-te	2g\	-ni-	2b-\	-ni-
!	!	!	!	!	!	!LO:LB:g=original	!
1D	-a	2d\	om-	2.f\	.	2.a\	.
.	.	2d\	-ni-	.	.	.	.
.	.	.	.	4e/	.	8g\L	.
!	!	!	!	!	!	!LO:TX:t=P:problem=kreska pseudotaktowa	!
.	.	.	.	.	.	8f\J	.
=39	=39	=39	=39	=39	=39	=39	=39
1.G	ſe-	2B-/	-a	4d/	.	2.g\	-a
.	.	.	.	4c/	.	.	.
.	.	4G/	ſe-	2B-/	-a	.	.
.	.	4A/	.	.	.	4f\	.
.	.	4B-/	.	2.d/	ſe-	4g\	.
.	.	4c/	.	.	.	4a\	.
2G/	-cu-	4d/	.	.	.	1b-	ſe-
*	*	*	*	*custos:f	*	*	*
.	.	4B-/	.	4e/	.	.	.
!	!	!	!	!LO:LB:g=original	!	!	!
=40	=40	=40	=40	=40	=40	=40	=40
1F	-la,	2c/	.	2f\	.	.	.
!	!	!	!	!	!	!LO:TX:t=P:problem=kreska pseudotaktowa	!
.	.	2c/	-cu-	2f\	  cu-	2a\	-cu-
1r	.	1B-	-la;	0d	-la,	2b-\	-la,
!	!	!	!	!	!	!LO:TX:t=P:problem=kreska pseudotaktowa	!
.	.	.	.	.	.	2f/	De-
=41	=41	=41	=41	=41	=41	=41	=41
1B-	De-	2r	.	.	.	2f/	  um
.	.	2d/	de-	.	.	2f/	de
!	!	!	!	!	!	!LO:TX:t=P:problem=kreska pseudotaktowa	!
2B-\	-um	2d/	-um	1r	.	1g	de-
2B-\	de	2d/	de	.	.	.	.
=42	=42	=42	=42	=42	=42	=42	=42
*custos:d	*	*	*	*	*	*	*
1c	de-	1e-X	de-	0r	.	2.a\	-o,
.	.	.	.	.	.	4g\	.
!LO:LB:g=original	!	!	!	!	!	!	!
2.d\	-o,	1d	-o,	.	.	4f\	.
.	.	.	.	.	.	4e\	.
.	.	.	.	.	.	4f\	.
!	!	!	!	!	!	!LO:TX:t=P:problem=kreska pseudotaktowa	!
4c\	.	.	.	.	.	4e/	.
=43	=43	=43	=43	=43	=43	=43	=43
4B-\	.	1r	.	1f	De-	4d/	.
*	*	*	*	*	*	*custos:d	*
4A\	.	.	.	.	.	4c/	.
!	!	!	!	!	!	!LO:LB:g=original	!
1B-	.	.	.	.	.	2.d/	.
.	.	1B-	lu-	2f\	-um	.	.
.	.	.	.	.	.	4e/	.
2A/	.	.	.	2f\	de	2.f/	.
=44	=44	=44	=44	=44	=44	=44	=44
*	*	*custos:B-	*	*	*	*	*
1G	.	2B-/	-men	1g	de-	.	.
.	.	.	.	.	.	8e/L	.
.	.	.	.	.	.	8d/J	.
!	!	!LO:LB:g=original	!	!	!	!LO:TX:t=P:problem=kreska pseudotaktowa	!
.	.	2B-/	de	.	.	2e/	.
1F	.	2c/	lu-	2.a\	.	1f	.
.	.	2c/	-mi-	.	.	.	.
.	.	.	.	4g\	.	.	.
=45	=45	=45	=45	=45	=45	=45	=45
!	!	!	!	!	!	!LO:TX:t=P:problem=kreska pseudotaktowa	!
0r	.	2.d/	  ne,	4f\	.	1r	.
.	.	.	.	4e\	.	.	.
.	.	.	.	4f\	.	.	.
.	.	4c/	.	4e/	.	.	.
.	.	4B-/	.	4d/	.	1f	lu-
.	.	4A/	.	4c/	.	.	.
*	*	*	*ij	*	*	*	*
.	.	1B-	lu-	2.d/	.	.	.
=46	=46	=46	=46	=46	=46	=46	=46
1B-	lu	.	.	.	.	2f\	-men
.	.	.	.	4e/	.	.	.
!	!	!	!	!	!	!LO:TX:t=P:problem=kreska pseudotaktowa	!
.	.	2A/	.	2.f\	.	2f\	de
2B-\	men	1G	-mi-	.	.	2g\	lu-
.	.	.	.	8e/L	.	.	.
.	.	.	.	8d/J	.	.	.
*	*	*	*	*custos:e	*	*	*
2B-\	de	.	.	2e/	-o,	2g\	-mi-
!	!	!	!	!LO:LB:g=original	!	!	!
=47	=47	=47	=47	=47	=47	=47	=47
2c\	lu-	1F	-ne	1f	.	1a	-ne,
*	*	*	*Xij	*	*	*	*
2c\	-mi-	.	.	.	.	.	.
2.d\	-ne,	1r	.	1r	.	2.f\	.
4c\	.	.	.	.	.	4e/	.
=48	=48	=48	=48	=48	=48	=48	=48
4B-\	.	1.f	De-	1r	.	4d/	.
4A/	.	.	.	.	.	4c/	.
1B-	.	.	.	.	.	2.d/	.
.	.	.	.	1B-	lu-	.	.
.	.	.	.	.	.	4e/	.
*custos:G	*	*	*	*	*	*	*
2A/	.	2f\	-um	.	.	1f	.
!LO:LB:g=original	!	!	!	!	!	!	!
=49	=49	=49	=49	=49	=49	=49	=49
*lig	*	*	*	*	*	*	*
1G	.	1g	ue-	2B-/	-men	.	.
*	*	*	*	*	*	*custos:f	*
.	.	.	.	2B-/	de	2e/	.
!	!	!	!	!	!	!LO:LB:g=original	!
1F	.	2.a\	.	2c/	lu-	1f	.
.	.	.	.	2c/	-mi-	.	.
.	.	4g\	.	.	.	.	.
*Xlig	*	*	*	*	*	*	*
=50	=50	=50	=50	=50	=50	=50	=50
0r	.	4f\	.	2.d/	-ne,	1r	.
.	.	4e\	.	.	.	.	.
.	.	4f\	.	.	.	.	.
.	.	4e\	.	4c/	.	.	.
.	.	4d\	.	4B-/	.	1.f	de-
*	*	*custos:d	*	*	*	*	*
.	.	4c\	.	4A/	.	.	.
.	.	2.d\	.	1B-	lu-	.	.
=51	=51	=51	=51	=51	=51	=51	=51
1.B-	De-	.	.	.	.	.	.
.	.	4e\	.	.	.	.	.
.	.	2.f\	.	2A/	-mi-	2f\	  um
.	.	.	.	1G	-ne,	1g	ue-
.	.	8e\L	.	.	.	.	.
.	.	8d\J	-rum,	.	.	.	.
2B-\	-um	2e\	.	.	.	.	.
=52	=52	=52	=52	=52	=52	=52	=52
1c	ue-	1f	.	1F	.	2.a\	-rum
.	.	.	.	.	.	4g\	.
2.d\	.	1r	.	1r	.	4f\	.
.	.	.	.	.	.	4e/	.
.	.	.	.	.	.	4f/	.
4c\	.	.	.	.	.	4e/	.
=53	=53	=53	=53	=53	=53	=53	=53
4B-\	.	1r	.	1.f	de-	4d/	.
4A/	.	.	.	.	.	4c/	.
1B-	.	.	.	.	.	2.d/	.
.	.	1.B-	de	.	.	.	.
.	.	.	.	.	.	4e/	.
2A\	.	.	.	2f\	-um	1f	.
=54	=54	=54	=54	=54	=54	=54	=54
1G	.	.	.	1g	ue-	.	.
.	.	2B-/	de-	.	.	2e/	.
*	*	*	*	*custos:f	*	*	*
1F	-rum,	1c	-o	2a\	-ru(m)	1f	.
!	!	!	!	!LO:LB:g=original	!	!	!
.	.	.	.	2.f	.	.	.
=55	=55	=55	=55	=55	=55	=55	=55
1D	de	2d\	.	.	.	2r	.
.	.	.	.	4e/	.	.	.
.	.	2f\	.	4d/	.	2a\	de
.	.	.	.	4c/	.	.	.
*	*	*lig	*	*	*	*	*
2E-X/	de-	1e-X	ve-	2B-/	.	2g\	.
2C/	-o	.	.	2c/	de	2cc\	de-
=56	=56	=56	=56	=56	=56	=56	=56
2.D/	ue-	1d	.	2F/	de-	4b-\	-o
.	.	.	.	.	.	4a\	.
.	.	.	.	2.f\	-o	2.a\	.
4E/	.	.	.	.	.	.	.
*custos:F	*	*	*	*	*	*custos:a	*
*	*	*Xlig	*	*	*	*	*
2F/	.	2c/	.	.	.	.	.
.	.	.	.	4e/	.	4g\	ve-
!LO:LB:g=original	!	!	!	!	!	!LO:LB:g=original	!
2G/	.	2B-/	.	4d/	.	1g	-ro
.	.	.	.	4c/	.	.	.
=57	=57	=57	=57	=57	=57	=57	=57
1D	-ro,	1A	-ro,	1d	ue-	.	.
.	.	.	.	.	.	2f\	.
1r	.	1G	.	1B-	-ro,	0g	.
=58	=58	=58	=58	=58	=58	=58	=58
1.G	Ge-	2r	.	2r	.	.	.
.	.	1B-	Ge-	1d	Ge-	.	.
.	.	.	.	.	.	1r	.
2F/	-ni-	2A/	-ni-	2d/	-ni-	.	.
=59	=59	=59	=59	=59	=59	=59	=59
*	*	*custos:A	*	*	*	*	*
2G/	-tum	2B-/	 tu(m)	2d/	 tum	1r	.
!	!	!LO:LB:g=original	!	!	!	!	!
2F/	no(n)	2A/	no(n)	2d/	no(n)	.	.
1G	f(a)c-	1B-	fac-	1e-X	fa-	2r	.
.	.	.	.	.	.	1g	Ge-
=60	=60	=60	=60	=60	=60	=60	=60
1D	-t(u)m	1A	-tum,	1d	-ctum,	.	.
.	.	.	.	.	.	2f\	-ni-
2r	.	2r	.	2r	.	2g\	-tum
2D/	con-	2A/	con-	1d	con-	2f\	no(n)
=61	=61	=61	=61	=61	=61	=61	=61
1G	.	1B-	-ſub-	.	.	1g	f(a)c-
.	.	.	.	2d/	-ſub-	.	.
2.D/	-ſub-	1A	-ſtan-	1.d	-ſtan-	1f	-t(u)m
4E/	-stan-	.	.	.	.	.	.
=62	=62	=62	=62	=62	=62	=62	=62
2F/	-ti-	2A/	-ti-	.	.	0r	.
1G	-a-	1B-	-a-	2d/	-ti-	.	.
.	.	.	.	2e-X/	-a-	.	.
2F/	-lem	2A/	-lem	2d/	-le(m)-	.	.
=63	=63	=63	=63	=63	=63	=63	=63
*custos:D	*	*	*	*	*	*	*
1G	pa-	1B-	p(at)-	1e	-pa-	2r	.
.	.	.	.	.	.	1g	con-
!LO:LB:g=original	!	!	!	!	!	!	!
1D	-tri,	1A	-ti;	1d	-tri,	.	.
.	.	.	.	.	.	2f\	-ſub-
=64	=64	=64	=64	=64	=64	=64	=64
1.G	per	2r	.	0B-	per	2.g\	-ſtan-
.	.	2.G/	per	.	.	.	.
.	.	.	.	.	.	4a\	-ti-
.	.	.	.	.	.	2b-\	-a-
.	.	4A/	.	.	.	.	.
2G/	quem	4B-/	.	.	.	2g\	-le(m)
.	.	4c/	.	.	.	.	.
=65	=65	=65	=65	=65	=65	=65	=65
2G/	om-	2d\	.	1B-	que(m)	1b-	pa-
2G/	-ni-	2e\	quem	.	.	.	.
*	*	*	*	*	*	*custos:g	*
2F/	-a	1f	.	2c/	om-	1a	-tri
2D/	fac	.	.	2d/	-(n)i-	.	.
!	!	!	!	!	!	!LO:LB:g=original	!
=66	=66	=66	=66	=66	=66	=66	=66
!	!	!LO:TX:t=P:problem=dwie nuty zapisane tercję za nisko, pomyłka oznaczona	!	!	!	!	!
2.E-X/	.	1.B-	om-	1G	-a	1.g	per
4F/	ta	.	.	.	.	.	.
0G	.	.	.	0B-	fac-	.	.
*	*	*custos:d	*	*	*	*	*
!	!	!	!	!	!	!LO:TX:t=P:problem=poprawka wysokości	!
.	.	2c/	-ni-	.	.	2g\	quem
!	!	!LO:LB:g=original	!	!	!	!	!
=67	=67	=67	=67	=67	=67	=67	=67
.	.	2d\	-a	.	.	2b-\	.
.	.	2e\	.	.	.	2b-\	om-
00F	ſu(n)t,	2.f\	fac-	1c	-ta	1a	-ni-
.	.	4e\	-ta	.	.	.	.
=68	=68	=68	=68	=68	=68	=68	=68
*	*	*	*	*custos:f	*	*	*
.	.	4d\	.	1A	ſu(n)t,	2.f/	-a
.	.	4c\	.	.	.	.	.
.	.	1d	.	.	.	.	.
.	.	.	.	.	.	4g\	fa-
!	!	!	!	!LO:LB:g=original	!	!	!
.	.	.	.	1.f	fac-	2a\	.
.	.	4c/	.	.	.	1b-	-cta
.	.	4B-/	.	.	.	.	.
=69	=69	=69	=69	=69	=69	=69	=69
.	.	1c	ſunt;	.	.	.	.
.	.	.	.	2f\	   ta	2a\	.
1r	.	1B-	.	0d	ſu(n)t,	1.b-	ſunt;
=70	=70	=70	=70	=70	=70	=70	=70
1G	Qui	2r	.	.	.	.	.
.	.	2d\	qui	.	.	4a\	.
.	.	.	.	.	.	4g\	.
1B-	prop-	1d	prop-	1r	.	1f	.
=71	=71	=71	=71	=71	=71	=71	=71
2.A/	-ter	2.f\	-ter	1r	.	1r	.
4G/	nos	4e\	nos	.	.	.	.
2F/	ho-	2d\	ho-	2r	.	2r	.
2E/	-(m)i-	2c\	-(m)i-	2e/	qui	2g\	qui
=72	=72	=72	=72	=72	=72	=72	=72
*custos:e	*	*	*	*	*	*	*
0D	-(n)es,	1d	   (n)es,	1f	prop-	2b-\	.
.	.	.	.	.	.	4a\	pro-
*	*	*	*	*	*	*custos:a	*
.	.	.	.	.	.	4g\	.
!	!	!	!	!	!	!LO:LB:g=original	!
.	.	1r	.	2.f\	-ter	2.a\	-pter
.	.	.	.	4e\	nos	4g\	nos
!LO:LB:g=original	!	!	!	!	!	!	!
=73	=73	=73	=73	=73	=73	=73	=73
2r	.	2r	.	2d/	ho-	2f/	ho-
2e\	et	2A/	et	2c/	-(m)i-	2e/	-mi-
2.f\	prop-	2.a\	prop-	1d	-(n)es,	1d	-nes;
*	*	*custos:f	*	*	*	*	*
4e\	-ter	4g\	-ter	.	.	.	.
!	!	!LO:LB:g=original	!	!	!	!	!
=74	=74	=74	=74	=74	=74	=74	=74
2d\	noſ-	2f\	noſ-	1r	.	2r	.
2c\	-tram	2e\	-tram	.	.	2a\	et
2d\	ſa-	2f\	ſa-	2r	.	2a\	prop-
2B-\	-lu-	2d/	-lu-	2d/	et	2g\	-ter
=75	=75	=75	=75	=75	=75	=75	=75
*	*	*lig	*	*	*	*	*
1A	-te(m)	1e	  te(m),	2d/	prop-	1a	n(os-
.	.	.	.	2c/	.	.	.
1r	.	1d	.	2.f\	-ter	2.a\	-t)ram
.	.	.	.	4e/	.	4g\	ſa-
*	*	*Xlig	*	*	*	*	*
=76	=76	=76	=76	=76	=76	=76	=76
2r	.	1r	.	2d/	noſ-	2f/	  lu-
*	*	*	*	*custos:d	*	*	*
2A/	de-	.	.	2c/	-tra(m)	2e/	-te(m),
!	!	!	!	!LO:LB:g=original	!	!	!
1.B-	-ſcen-	2r	.	2d/	ſa-	1d	.
.	.	1d	de-	2.g\	.	.	.
=77	=77	=77	=77	=77	=77	=77	=77
.	.	.	.	.	.	2r	.
.	.	.	.	8f\L	.	.	.
.	.	.	.	8e\J	.	.	.
2A/	.	2c/	-ſcen-	2f\	-lu-	2a\	de-
1G	-dit	2d/	.	1g	-te(m),	1.b-	-ſcen-
.	.	2e\	-dit	.	.	.	.
=78	=78	=78	=78	=78	=78	=78	=78
1F	de	2.f\	de	2r	.	.	.
.	.	.	.	2c/	de-	2a\	-dit
.	.	4e\	c(ae)-	.	.	.	.
*	*	*	*	*	*	*custos:f	*
1G	c(ae)-	4d\	.	2B-/	-ſcen-	1g	de
.	.	4c/	.	.	.	.	.
.	.	2.d/	.	2G/	.	.	.
!	!	!	!	!	!	!LO:LB:g=original	!
=79	=79	=79	=79	=79	=79	=79	=79
1D	-lis	.	.	1d	-dit	2.f\	coe-
.	.	4c/	.	.	.	.	.
.	.	2B-/	.	.	.	.	.
.	.	.	.	.	.	4g\	.
*	*	*custos:G	*	*	*	*	*
*	*ij	*	*	*	*	*	*
2F/	de	2A/	.	2c/	de	2a\	.
!	!	!LO:LB:g=original	!	!	!	!	!
2G/	.	2G/	.	2B-/	.	2.b-\	.
=80	=80	=80	=80	=80	=80	=80	=80
*custos:D	*	*	*	*	*	*	*
1E-X	c(ae)-	2B-/	.	1G	.	.	.
.	.	.	.	.	.	4a\	.
.	.	2c/	.	.	.	1g	.
!LO:LB:g=original	!	!	!	!	!	!	!
1D	.	1A	.	1d	c(ae)-	.	.
.	.	.	.	.	.	2f/	.
=81	=81	=81	=81	=81	=81	=81	=81
1G	-lis	1G	-lis,	1B-	-lis,	0g	-lis;
1r	.	1r	.	1r	.	.	.
*	*Xij	*	*	*	*	*	*
=82	=82	=82	=82	=82	=82	=82	=82
0G	Et	0g	Et	0b-	Et	1r	.
.	.	.	.	.	.	1.d	Et
=83	=83	=83	=83	=83	=83	=83	=83
*	*	*	*	*custos:b-	*	*	*
1D	in-	1.f	in-	0a	in-	.	.
.	.	.	.	.	.	2d/	in-
*	*	*	*	*	*	*lig	*
1F	-car-	.	.	.	.	1c	-car-
.	.	2a\	-car-	.	.	.	.
!	!	!	!	!LO:LB:g=original	!	!	!
=84	=84	=84	=84	=84	=84	=84	=84
*lig	*	*	*	*	*	*	*
1G	-na-	2.g\	  na-	1b-	-car-	1B-	.
.	.	4f\	-tus	.	.	.	.
*	*	*	*	*	*	*Xlig	*
1.A	.	2e\	eſt,	1.a	-na-	2c/	-na-
.	.	2d\	.	.	.	2.d/	-tus
*Xlig	*	*	*	*	*	*	*
=85	=85	=85	=85	=85	=85	=85	=85
.	.	1e	.	.	.	.	.
.	.	.	.	.	.	8c/L	.
.	.	.	.	.	.	8B-/J	.
2A/	-tus	.	.	2a\	-tus-	2c/	eſt;
*	*	*	*	*	*	*custos:b-	*
1D	eſt,	0d	.	1f	-eſt,	1d	.
!	!	!	!	!	!	!LO:LB:g=original	!
=86	=86	=86	=86	=86	=86	=86	=86
1r	.	.	.	1r	.	1r	.
0G	de	1r	.	0g	de	0b-	de
=87	=87	=87	=87	=87	=87	=87	=87
.	.	1d	de	.	.	.	.
1D	ſpi-	2d\	ſpi-	1.f	ſpi-	0a	ſpi-
*	*	*custos:c	*	*	*	*	*
.	.	2d\	-ri-	.	.	.	.
!	!	!LO:LB:g=original	!	!	!	!	!
=88	=88	=88	=88	=88	=88	=88	=88
1F	-ri-	1c	-ri-	.	.	.	.
.	.	.	.	2a\	  ri-	.	.
1G	-tu	1B-	-tu	2.g\	-tu	2b-\	-ri-
.	.	.	.	.	.	2b-\	-tu
.	.	.	.	4f/	ſan-	.	.
=89	=89	=89	=89	=89	=89	=89	=89
0A	ſ(an)-	2c/	ſan-	2e/	.	0a	ſan-
.	.	2.d\	.	2d/	.	.	.
.	.	.	.	1e	.	.	.
.	.	8c/L	.	.	.	.	.
.	.	8B-/J	.	.	.	.	.
.	.	2c/	.	.	.	.	.
=90	=90	=90	=90	=90	=90	=90	=90
0D	-cto	0d	.	1d	-cto,	1f	-cto,
.	.	.	.	2r	.	2r	.
.	.	.	.	1f	ex	1a	ex
=91	=91	=91	=91	=91	=91	=91	=91
0r	.	1A	-cto,	.	.	.	.
.	.	.	.	2e/	.	2a\	Ma-
.	.	1r	.	2.d/	Ma-	2.b-\	-ri-
.	.	.	.	4c/	-ri-	4a\	-a
=92	=92	=92	=92	=92	=92	=92	=92
*	*	*	*	*custos:e	*	*	*
0r	.	0r	.	2d/	-a	4b-\	.
.	.	.	.	.	.	4a\	.
!	!	!	!	!LO:LB:g=original	!	!	!
.	.	.	.	2.e/	uir-	2.cc\	vir-
.	.	.	.	4d/	.	4b-\	-gi-
.	.	.	.	4d/	.	1b-	-ne,
.	.	.	.	8c/L	.	.	.
.	.	.	.	8B-/J	.	.	.
=93	=93	=93	=93	=93	=93	=93	=93
1r	.	1r	.	2c/	.	.	.
.	.	.	.	2c/	-gi-	2a\	.
1G	Et	0B-	Et	2B-/	-ne,	2b-\	.
.	.	.	.	2d/	Et	2b-\	Et
=94	=94	=94	=94	=94	=94	=94	=94
*	*	*	*	*	*	*custos:a	*
1G	ho-	.	.	2.d/	ho-	1b-	ho-
.	.	.	.	4e/	-mo	.	.
*custos:E-	*	*	*	*	*	*	*
!	!	!	!	!	!	!LO:LB:g=original	!
1F	-mo	2c/	ho-	2f\	.	1a	-mo
.	.	2A/	-mo	2d/	.	.	.
!LO:LB:g=original	!	!	!	!	!	!	!
=95	=95	=95	=95	=95	=95	=95	=95
1.E-X	fac-	1.B-	fac-	1.e-X	fac-	1.g	fac-
2C/	-tus	2c/	-tus	2e-/	-tus	2g\	-tus-
=96	=96	=96	=96	=96	=96	=96	=96
*	*	*	*	*custos:B-	*	*	*
*	*	*custos:G	*	*	*	*	*
!	!	!	!	!LO:TX:a:t=Dvo	!	!	!
!LO:N:vis=00	!	!LO:N:vis=00	!	!LO:N:vis=00	!	!LO:N:vis=00	!
0D	eſt,	0A	eſt:	0d;	eſt,	0f	-eſt,
!	!	!LO:LB:g=original	!	!LO:LB:g=original	!	!	!
=97	=97	=97	=97	=97	=97	=97	=97
!LO:TX:t=P:problem=crucifixus na zdjęciu 0601	!	!	!	!	!	!	!
!LO:TX:b:t=Crucifixus\nVide in fine&colon;\npoſt&colon; Agnus;	!	!LO:TX:b:t=Crucifixus\ntacet,	!	!	!	!LO:TX:a:t=Dvo	!
1r	.	0ryy	.	0.B-	Cru-	0r	.
1.G	Cru-	.	.	.	.	.	.
=98	=98	=98	=98	=98	=98	=98	=98
.	.	0ryy	.	.	.	1r	.
2G/	-ci-	.	.	.	.	.	.
1d	-fix-	.	.	1G	  ci-	1.B-	Cru-
=99	=99	=99	=99	=99	=99	=99	=99
1G	-us	0ryy	.	0.d	-fix-	.	.
.	.	.	.	.	.	2B-/	  ci-
2r	.	.	.	.	.	1B-	-fix-
*	*ij	*	*	*	*	*	*
1B-	cru-	.	.	.	.	.	.
=100	=100	=100	=100	=100	=100	=100	=100
.	.	0ryy	.	.	.	1G	-us
2B-/	-ci-	.	.	.	.	.	.
2B-/	-fix-	.	.	1B-	-us	1.d	e-
2G/	-us	.	.	.	.	.	.
*	*Xij	*	*	*	*	*	*
=101	=101	=101	=101	=101	=101	=101	=101
1B-	e-	0ryy	.	1f	e-	.	.
.	.	.	.	.	.	2d/	  ti-
*	*	*	*	*	*	*custos:d	*
2B-/	-ti-	.	.	2d/	-ti-	2B-/	-am
!	!	!	!	!	!	!LO:LB:g=original	!
2B-/	-am	.	.	2.f\	-am	2.d/	pro
=102	=102	=102	=102	=102	=102	=102	=102
2B-/	pro-	0ryy	.	.	.	.	.
.	.	.	.	4e/	.	4e/	.
2B-/	-no-	.	.	2.d/	pro	4f/	.
.	.	.	.	.	.	4d/	.
1A	-bis;	.	.	.	.	1e	no-
.	.	.	.	8c/L	.	.	.
.	.	.	.	8B-/J	.	.	.
.	.	.	.	2c/	no-	.	.
=103	=103	=103	=103	=103	=103	=103	=103
2r	.	0ryy	.	1d	-bis,	2d/	-bis,
*custos:F	*	*	*	*	*	*	*
2D/	ſub	.	.	.	.	2d/	ſub
!LO:LB:g=original	!	!	!	!	!	!	!
2F/	Pon-	.	.	2r	.	2d/	Pon-
2E/	-ti-	.	.	2g\	ſub	2c/	-ti-
=104	=104	=104	=104	=104	=104	=104	=104
1D	-o	0ryy	.	2g\	Pon-	2d/	  o,
.	.	.	.	2f\	-ti-	2d/	Pi-
2r	.	.	.	2g\	-o	2e/	-la-
*	*	*	*	*custos:b-	*	*	*
*	*ij	*	*	*	*	*	*
2F/	ſub	.	.	2a\	Pil-	4d/	.
.	.	.	.	.	.	4c/	.
!	!	!	!	!LO:LB:g=original	!	!	!
=105	=105	=105	=105	=105	=105	=105	=105
2G/	Pon-	0ryy	.	2b-\	-la-	2B-/	.
2A/	-ti-	.	.	4a\	.	2c/	.
.	.	.	.	4g\	.	.	.
2B-/	-o	.	.	4f\	.	1d	.
*	*Xij	*	*	*	*	*	*
.	.	.	.	4g\	.	.	.
2F/	Pi-	.	.	4a\	.	.	.
.	.	.	.	4f\	.	.	.
=106	=106	=106	=106	=106	=106	=106	=106
2.G/	-la-	0ryy	.	2g\	.	2G/	-to,
*	*	*	*	*	*	*custos:c	*
*	*	*	*	*	*	*	*ij
.	.	.	.	1b-	.	1d	Pi-
4A/	.	.	.	.	.	.	.
2B-/	.	.	.	.	.	.	.
!	!	!	!	!	!	!LO:LB:g=original	!
2F/	.	.	.	2.a\	.	2.c/	-la-
=107	=107	=107	=107	=107	=107	=107	=107
1G	.	0ryy	.	.	.	.	.
.	.	.	.	4g\	.	4B-/	.
.	.	.	.	1g	.	4B-/	.
.	.	.	.	.	.	8A/L	.
.	.	.	.	.	.	8G/J	.
1D	-to,	.	.	.	.	1A	.
.	.	.	.	2f\	.	.	.
=108	=108	=108	=108	=108	=108	=108	=108
2r	.	0ryy	.	00g	-to,	1G	-to
*	*	*	*	*	*	*	*Xij
2G/	paſ-	.	.	.	.	.	.
2E/	-sus	.	.	.	.	2r	.
2C/	et	.	.	.	.	1c	Paſ-
=109	=109	=109	=109	=109	=109	=109	=109
1G	ſe-	0ryy	.	.	.	.	.
.	.	.	.	.	.	2B-/	-sus,
1C	-pul-	.	.	.	.	2.c/	et
.	.	.	.	.	.	4d/	ſe-
=110	=110	=110	=110	=110	=110	=110	=110
*custos:D	*	*	*	*	*	*	*
1C	-tus	0ryy	.	2r	.	2e-X/	  pul-
.	.	.	.	1g	paſ-	2e-/	-tus
!LO:LB:g=original	!	!	!	!	!	!	!
1D	eſt	.	.	.	.	1d	eſt,
.	.	.	.	4f\	-sus	.	.
.	.	.	.	4e/	.	.	.
=111	=111	=111	=111	=111	=111	=111	=111
1D	paſ-	0ryy	.	2.f\	.	2r	.
*	*	*	*	*	*	*	*ij
.	.	.	.	.	.	2.d/	ſe-
.	.	.	.	4g\	.	.	.
*	*	*	*	*custos:d	*	*	*
2D/	-sus	.	.	2a\	.	.	.
.	.	.	.	.	.	4c/	.
!	!	!	!	!LO:LB:g=original	!	!	!
4G/	et	.	.	2d/	et	4B-/	.
4A/	.	.	.	.	.	4A/	.
=112	=112	=112	=112	=112	=112	=112	=112
4B-\	.	0ryy	.	1g	ſe-	4G/	.
4c\	.	.	.	.	.	4A/	.
2d\	.	.	.	.	.	4B-/	.
*	*	*	*	*	*	*custos:d	*
.	.	.	.	.	.	4c/	.
!	!	!	!	!	!	!LO:LB:g=original	!
2B-/	ſe-	.	.	4f\	-pul-	4d/	.
.	.	.	.	4g\	.	4e/	.
2F/	-pul-	.	.	4a\	.	4f\	.
.	.	.	.	4f\	.	4d/	.
=113	=113	=113	=113	=113	=113	=113	=113
2G/	.	0ryy	.	4g\	.	4e/	.
.	.	.	.	4f\	.	4d/	.
2B-/	.	.	.	8g\L	.	1d	-pul-
.	.	.	.	8f\J	.	.	.
.	.	.	.	8e/L	.	.	.
.	.	.	.	8d/J	.	.	.
2.A/	.	.	.	2e/	.	.	.
.	.	.	.	2e/	-tus	2c/	-tus
4G/	.	.	.	.	.	.	.
=114	=114	=114	=114	=114	=114	=114	=114
2F/	.	0ryy	.	2d/	eſt,	1d	eſt
*	*	*	*	*	*	*	*Xij
2G/	.	.	.	1d	paſ-	.	.
1E	-tus	.	.	.	.	2r	.
.	.	.	.	2c/	-sus	1g	Paſ-
=115	=115	=115	=115	=115	=115	=115	=115
1D	e(st);	0ryy	.	2d/	et	.	.
*	*	*	*	*custos:e-	*	*	*
.	.	.	.	2d/	ſe-	2f\	-sus
!	!	!	!	!LO:LB:g=original	!	!	!
2r	.	.	.	2e-X/	-pul-	2g\	et
*	*ij	*	*	*	*	*	*
2F/	paſ-	.	.	4d/	.	2a\	ſe-
.	.	.	.	4c/	.	.	.
=116	=116	=116	=116	=116	=116	=116	=116
*custos:A	*	*	*	*	*	*	*
2G/	-sus	0ryy	.	2B-/	.	2b-\	-pul-
!LO:LB:g=original	!	!	!	!	!	!	!
2A/	et	.	.	2c/	.	4a\	.
.	.	.	.	.	.	4g\	.
2B-\	ſe-	.	.	1d	-tus	4f\	-tus
.	.	.	.	.	.	4g\	eſt,
2F/	-pul-	.	.	.	.	4a\	.
.	.	.	.	.	.	4f\	.
=117	=117	=117	=117	=117	=117	=117	=117
2.G/	.	0ryy	.	2G/	.	2g\	.
*	*	*	*	*	*	*custos:a	*
.	.	.	.	1d	eſt,	1b-	.
4A/	.	.	.	.	.	.	.
2B-/	.	.	.	.	.	.	.
*	*	*	*	*	*ij	*	*
!	!	!	!	!	!	!LO:LB:g=original	!
2F/	.	.	.	2.c/	paſ-	2.a\	.
=118	=118	=118	=118	=118	=118	=118	=118
1G	.	0ryy	.	.	.	.	.
.	.	.	.	4B-/	-sus	4g\	.
.	.	.	.	4B-/	et	1g	.
.	.	.	.	8A/L	ſe-	.	.
.	.	.	.	8G/J	.	.	.
1D	-tus	.	.	2A/	-pul-	.	.
.	.	.	.	2A/	-tus	2f\	.
=119	=119	=119	=119	=119	=119	=119	=119
*	*	*	*	*custos:g	*	*	*
!LO:N:vis=00	!	!LO:N:vis=00	!	!LO:N:vis=00	!	!LO:N:vis=00	!
0G;	e(st)	0ryy	.	0G	eſt	0g	.
!	!	!	!	!LO:LB:g=original	!	!	!
*	*Xij	*	*	*clefC3	*Xij	*	*
=120	=120	=120	=120	=120	=120	=120	=120
!	!	!	!	!LO:TX:t=P:problem=partia Et resurrexit wpisana na końcu mszy, zdjęcie 0234	!	!LO:TX:t=P:problem=partia Et resurrexit wpisana na końcu mszy, zdjęcie 0043	!
!	!	!	!	!LO:TX:t=P:problem= było tacet, ale wydrapano	!	!	!
!	!	!	!	!LO:TX:a:t=Et reſurre&colon;\nxit\n	!	!LO:TX:a:t=Et reſur(r)exit\nVide in fine p(ost)\nAgnus&colon;	!
1r	.	1G	Et	0r	.	0r	.
1.G	Et	2G/	re-	.	.	.	.
.	.	2A/	-ſur-	.	.	.	.
=121	=121	=121	=121	=121	=121	=121	=121
.	.	1B-	  re-	1.G	Et	1r	.
2A/	re-	.	.	.	.	.	.
1B-	-ſur-	1G	-xit	.	.	1.G	Et
.	.	.	.	2A/	re-	.	.
=122	=122	=122	=122	=122	=122	=122	=122
1G	-re-	1d	.	1B-	-ſu-	.	.
.	.	.	.	.	.	2A/	re-
1d	-xit	1r	.	1G	-re-	1B-	-ſur-
=123	=123	=123	=123	=123	=123	=123	=123
1r	.	1.d	ter-	2d/	-xit	1G	-re-
.	.	.	.	1B-	.	.	.
1.D	ter-	.	.	.	.	2d/	-xit-
.	.	2e\	-ti-	4A/	ter-	4c/	.
.	.	.	.	4G/	-ti-	4B-/	.
=124	=124	=124	=124	=124	=124	=124	=124
.	.	2f\	  a	2F/	.	4A/	.
.	.	.	.	.	.	4B-/	.
*custos:F	*	*	*	*	*	*	*
2E/	-ti-	4e\	.	2G/	.	1.c	.
.	.	4d\	.	.	.	.	.
*	*	*custos:f	*	*	*	*	*
!LO:LB:g=original	!	!	!	!	!	!	!
1F	-a	2c/	.	2.A/	.	.	.
!	!	!LO:LB:g=original	!	!	!	!	!
.	.	2.f\	di-	.	.	.	.
.	.	.	.	4G/	.	.	.
=125	=125	=125	=125	=125	=125	=125	=125
1D	di-	.	.	2A/	-a	1d	.
.	.	4e\	.	.	.	.	.
.	.	4f\	.	2.d/	di-	.	.
.	.	4d\	.	.	.	.	.
1A	-e	1e	.	.	.	2A/	.
.	.	.	.	4c/	.	.	.
.	.	.	.	2c/	-e	2a\	-ter-
=126	=126	=126	=126	=126	=126	=126	=126
2r	.	2d/	-e-	2d/	.	2f/	  ti-
2F/	ſe-	2.f\	-ſe-	2c/	ſe-	1a	-a
1B-	-cun-	.	.	2.d/	-cun-	.	.
.	.	4e\	-cun-	.	.	.	.
*	*	*	*	*	*	*custos:a	*
.	.	2d/	.	.	.	2g\	di-
.	.	.	.	4e\	.	.	.
!	!	!	!	!	!	!LO:LB:g=original	!
=127	=127	=127	=127	=127	=127	=127	=127
*	*	*	*	*custos:e	*	*	*
1A	-dum	2c/	-dum	2f\	-dum	1.a	.
!	!	!	!	!LO:LB:g=original	!	!	!
.	.	1f	.	2e\	ſcri-	.	.
2F/	ſcri-	.	.	4d\	.	.	.
.	.	.	.	4c\	.	.	.
2.G/	.	2.e\	ſcrip-	4B-/	.	4g\	.
.	.	.	.	4A/	.	4f\	-e
=128	=128	=128	=128	=128	=128	=128	=128
.	.	.	.	4B-/	.	0g	.
4F/	.	4d\	-tu-	4A/	.	.	.
4E/	.	1d	-raS,	4G/	.	.	.
4D/	.	.	.	4F/	.	.	.
1E	-ptu-	.	.	2.G/	.	.	.
.	.	2c/	.	.	.	.	.
.	.	.	.	4A/	-ptu-	.	.
=129	=129	=129	=129	=129	=129	=129	=129
2D/	-ras,	0d	.	1B-	-ras	0r	.
1G	et	.	.	.	.	.	.
.	.	.	.	2r	.	.	.
2G/	a-	.	.	2G/	et	.	.
=130	=130	=130	=130	=130	=130	=130	=130
2B-\	-ſcen-	2r	.	2G/	a-	1r	.
*	*	*custos:d	*	*	*	*	*
2G/	-dit	1d	Et	2B-/	-ſcen-	.	.
2.B-\	in	.	.	2G/	-dit	2r	.
!	!	!LO:LB:g=original	!	!	!	!	!
.	.	2d\	a-	[2B-/	in	2d/	et
*custos:d	*	*	*	*	*	*	*
4c\	.	.	.	.	.	.	.
!LO:LB:g=original	!	!	!	!	!	!	!
=131	=131	=131	=131	=131	=131	=131	=131
1d	c(ae)-	2f\	-ſcen-	4B-/]	.	2d/	a-
.	.	.	.	4c/	.	.	.
.	.	2d\	-dit	2d/	c(ae)-	2f\	-ſcen-
1d	-lum,-	2.f\	in	1B-	-lu(m);	2d/	.
.	.	.	.	.	.	2f\	-dit
.	.	4g\	c(ae)-	.	.	.	.
=132	=132	=132	=132	=132	=132	=132	=132
2r	.	1a	-lum,	1A	.	2e/	in
*	*ij	*	*	*	*ij	*	*
1D	-et	.	.	.	.	2.d/	.
.	.	1a	.	2r	.	.	.
.	.	.	.	.	.	4e/	.
*	*	*	*	*custos:A	*	*	*
2D/	a-	.	.	2A/	et	4f\	ce-
.	.	.	.	.	.	4g\	-lum;
!	!	!	!	!LO:LB:g=original	!	!	!
=133	=133	=133	=133	=133	=133	=133	=133
2.F/	-ſcen-	2r	.	2A/	a-	1a	.
*	*	*	*ij	*	*	*	*ij
.	.	2.f\	et	1d	-ſcen-	.	.
4G/	-dit	.	.	.	.	.	.
1A	in	.	.	.	.	2r	.
.	.	4e\	a-	.	.	.	.
.	.	4e\	-ſcen-	2c/	-dit	2a\	et
.	.	8d/L	.	.	.	.	.
.	.	8c/J	.	.	.	.	.
=134	=134	=134	=134	=134	=134	=134	=134
4D/	c(ae)-	1d	-dit	1f	in	1a	a-
4E/	.	.	.	.	.	.	.
4F/	.	.	.	.	.	.	.
4G/	.	.	.	.	.	.	.
4A/	.	4c/	in	1e	c(ae)-	1a	-ſcen-
4B-\	.	4d\	.	.	.	.	.
4c\	.	4e\	.	.	.	.	.
*	*	*custos:d	*	*	*	*	*
4A\	.	4c/	.	.	.	.	.
!	!	!LO:LB:g=original	!	!	!	!	!
=135	=135	=135	=135	=135	=135	=135	=135
4B-\	.	2d\	c(ae)-	1d	-lu(m)	2g\	-dit
*	*	*	*	*	*Xij	*	*
4A\	.	.	.	.	.	.	.
*	*	*	*	*	*	*custos:g	*
2.d\	.	2f\	.	.	.	2f\	in
!	!	!	!	!	!	!LO:LB:g=original	!
.	.	1e	-lum	1r	.	1g	ce-
*	*	*	*Xij	*	*	*	*
8c\L	.	.	.	.	.	.	.
*custos:c	*	*	*	*	*	*	*
8B-\J	.	.	.	.	.	.	.
2c\	.	.	.	.	.	.	.
=136	=136	=136	=136	=136	=136	=136	=136
1d	-lum	2r	.	2r	.	1f	-lum
*	*Xij	*	*	*	*	*	*Xij
.	.	2d\	ſe-	2B-/	ſe-	.	.
2r	.	2.d\	-det	2.B-/	-det	1r	.
2G/	ſe-	.	.	.	.	.	.
.	.	4c/	ad	4A/	.	.	.
=137	=137	=137	=137	=137	=137	=137	=137
2G/	-det	4d\	.	4B-/	.	0r	.
.	.	4e\	.	4c/	.	.	.
2F/	ad	4f\	.	1d	ad	.	.
.	.	4d\	.	.	.	.	.
2G/	dex-	2e\	.	.	.	.	.
2A/	-te-	2e\	dex-	2c/	.	.	.
=138	=138	=138	=138	=138	=138	=138	=138
2.B-\	-ram	2d\	-te-	2.d/	dex-	0r	.
.	.	2.f\	-ram	.	.	.	.
8A/L	.	.	.	8c/L	.	.	.
8G/J	.	.	.	8B-/J	.	.	.
2F/	pa-	.	.	2A/	.	.	.
.	.	4e\	.	.	.	.	.
2.G/	.	4d\	.	2B-/	-te-	.	.
.	.	4c/	.	.	.	.	.
=139	=139	=139	=139	=139	=139	=139	=139
.	.	4B-/	.	2G/	-ra(m)	0r	.
4F/	.	4A/	.	.	.	.	.
*	*	*custos:d	*	*	*	*	*
4D/	.	1d	.	2.A/	pa-	.	.
4F/	.	.	.	.	.	.	.
1E	.	.	.	.	.	.	.
*	*	*	*	*custos:G	*	*	*
.	.	.	.	4G/	.	.	.
!	!	!LO:LB:g=original	!	!	!	!	!
!	!	!	!	!LO:LB:g=original	!	!	!
.	.	2c/	pat-	2G/	.	.	.
=140	=140	=140	=140	=140	=140	=140	=140
0D	-tris,	0.d	-ris,	2A/	-tr(is)	2r	.
.	.	.	.	2B-/	.	2g\	ſe-
.	.	.	.	1A	.	2g\	-det
.	.	.	.	.	.	2f\	ad-
=141	=141	=141	=141	=141	=141	=141	=141
*	*	*	*	*	*ij	*	*
2r	.	.	.	4G/	ſe-	1.g	-dex-
.	.	.	.	4A/	.	.	.
*custos:G	*	*	*	*	*	*	*
2G/	ſe-	.	.	4B-/	.	.	.
.	.	.	.	4c/	.	.	.
!LO:LB:g=original	!	!	!	!	!	!	!
2G/	-det	2r	.	4d\	.	.	.
.	.	.	.	4e\	.	.	.
2F/	ad	2d\	ſe-	2f\	.	2a\	-te-
=142	=142	=142	=142	=142	=142	=142	=142
2G/	.	2d\	-det	2B-/	-det	2b-\	-ra(m)
2A/	dex-	2c\	ad	2f\	ad	4a\	.
.	.	.	.	.	.	4g\	.
2B-/	-te-	2d\	dex-	2d\	dex-	2f/	.
4A/	-ram	2e\	-te-	4c/	.	2b-\	pa-
4G/	.	.	.	4B-/	.	.	.
=143	=143	=143	=143	=143	=143	=143	=143
2F/	.	4f\	-ram	2c/	-te-	2a\	.
.	.	4e\	.	.	.	.	.
1B-	pa-	4d\	.	2d/	-ra(m)	2g\	.
.	.	4c\	pa-	.	.	.	.
.	.	2d\	.	2B-/	pa-	1f	.
2.A/	.	2.c/	.	2c/	.	.	.
=144	=144	=144	=144	=144	=144	=144	=144
.	.	.	.	2A/	.	1e	.
4G/	.	4B-/	.	.	.	.	.
1G	.	4B-/	.	4B-/	.	.	.
.	.	8A/L	.	4c/	.	.	.
.	.	8G/J	.	.	.	.	.
*	*	*	*	*	*	*custos:G	*
!	!	!	!	!	!	!LO:N:vis=00	!
.	.	1A	.	1d	.	0.d;	-tris;
2F/	.	.	.	.	.	.	.
!	!	!	!	!	!	!LO:LB:g=original	!
=145	=145	=145	=145	=145	=145	=145	=145
*custos:G	*	*custos:g	*	*	*	*	*
!LO:N:vis=00	!	!LO:N:vis=00	!	!LO:N:vis=00	!	!	!
0G	-triS	0G	-tris	0B-;	-tr(is)	.	.
*	*	*	*	*clefC2	*Xij	*	*
!LO:LB:g=original	!	!	!LO:LB:g=original	!	!	!	!
=146	=146	=146	=146	=146	=146	=146	=146
!LO:TX:a:t=Et iterum \ntacet,	!	!	!	!	!	!	!
0ryy	.	1r	.	0r	.	1G	Et
.	.	0g	Et	.	.	2G/	i-
.	.	.	.	.	.	2A/	-te-
=147	=147	=147	=147	=147	=147	=147	=147
0ryy	.	.	.	0r	.	2B-/	-rum
.	.	.	.	.	.	2G/	uen-
.	.	2g\	i-	.	.	2B-/	-tu-
.	.	2g\	-te-	.	.	2c/	-rus
=148	=148	=148	=148	=148	=148	=148	=148
*	*	*	*	*	*	*custos:e	*
0ryy	.	2f\	-rum	1r	.	2d/	.
!	!	!	!	!	!	!LO:LB:g=original	!
.	.	2.g\	uen-	.	.	2.e/	eſt
.	.	.	.	1g	Et	.	.
.	.	4f\	-tu-	.	.	4d/	.
.	.	4e\	.	.	.	2.d/	.
.	.	4d/	-ris	.	.	.	.
=149	=149	=149	=149	=149	=149	=149	=149
0ryy	.	2e\	eſt	2g\	i-	.	.
.	.	.	.	.	.	8c/L	.
.	.	.	.	.	.	8B-/J	.
.	.	2e\	.	2g\	-te-	2c/	.
.	.	2d/	.	2f\	-rum	2d/	.
.	.	2.e-X\	.	2.g\	uen-	2c/	.
=150	=150	=150	=150	=150	=150	=150	=150
0ryy	.	.	.	.	.	2d/	.
.	.	4d\	.	4f\	.	.	.
.	.	2.d/	.	2d/	-tu-	2B-/	.
.	.	.	.	1e	-rus	1A	.
.	.	8c/L	.	.	.	.	.
.	.	8B-/J	.	.	.	.	.
.	.	2c/	.	.	.	.	.
=151	=151	=151	=151	=151	=151	=151	=151
0ryy	.	1d	.	1d	eſt,	2r	.
.	.	.	.	.	.	2d/	.
*	*	*custos:A	*	*	*	*	*
.	.	1A	.	1r	.	2f\	cum
.	.	.	.	.	.	2e\	glo-
!	!	!LO:LB:g=original	!	!	!	!	!
=152	=152	=152	=152	=152	=152	=152	=152
0ryy	.	2r	.	2r	.	4d/	-ri-
.	.	.	.	.	.	4e/	-a
*	*	*clefC2	*	*	*	*	*
.	.	2f\	cum	2d/	cum	4f\	.
.	.	.	.	.	.	4g\	.
.	.	2f\	.	2d/	glo-	4a\	.
*	*	*	*	*	*	*custos:cc	*
.	.	.	.	.	.	4b-\	.
!	!	!	!	!	!	!LO:LB:g=original	!
.	.	2e/	glo-	2c/	.	4cc\	.
.	.	.	.	.	.	4a\	.
=153	=153	=153	=153	=153	=153	=153	=153
0ryy	.	2d/	-ri-	2B-/	-ri-	2.b-\	.
.	.	1f	-a	1d	-a-	.	.
.	.	.	.	.	.	4a\	.
.	.	.	.	.	.	2b-\	iu-
.	.	2.e/	iu-	2c/	-iu-	2.a\	-di-
=154	=154	=154	=154	=154	=154	=154	=154
0ryy	.	.	.	2.B-/	-di-	.	.
.	.	4d/	-di-	.	.	4g\	-ca-
.	.	1d	-ca-	.	.	1g	-re
.	.	.	.	8A/L	-ca-	.	.
.	.	.	.	8G/J	.	.	.
*	*	*	*	*custos:A	*	*	*
.	.	.	.	1A	.	.	.
.	.	2c/	-re,	.	.	2f\	.
!	!	!	!	!LO:LB:g=original	!	!	!
=155	=155	=155	=155	=155	=155	=155	=155
0ryy	.	1d	.	4G/	-re	2g\	.
.	.	.	.	4A/	.	.	.
.	.	.	.	4B-/	.	2d/	.
.	.	.	.	4c/	.	.	.
.	.	2r	.	4d/	.	1.f	ui-
.	.	.	.	4e/	.	.	.
*	*	*	*ij	*	*	*	*
.	.	2d/	cum	4f\	.	.	.
.	.	.	.	4g\	.	.	.
=156	=156	=156	=156	=156	=156	=156	=156
0ryy	.	2d/	glo-	4a\	.	.	.
.	.	.	.	4b-\	.	.	.
.	.	2c/	-ri-	4cc\	.	2e/	-uos
.	.	.	.	4a\	.	.	.
*	*	*	*	*	*ij	*	*
.	.	2B-/	-a	2.b-\	iu-	2d/	.
.	.	1d	iu-	.	.	1f	et
.	.	.	.	4a\	-di-	.	.
=157	=157	=157	=157	=157	=157	=157	=157
0ryy	.	.	.	2b-\	-ca-	.	.
.	.	2c/	-di-	1a	.	2.e/	mor-
.	.	2.B-/	-ca-	.	.	.	.
.	.	.	.	.	.	4d/	-tu-
.	.	.	.	1g	.	1d	.
.	.	8A/L	.	.	.	.	.
.	.	8G/J	.	.	.	.	.
*	*	*clefC3	*	*	*	*	*
=158	=158	=158	=158	=158	=158	=158	=158
*	*	*custos:F	*	*	*	*	*
0ryy	.	1A	.	.	.	.	.
*	*	*	*	*	*	*custos:d	*
.	.	.	.	2f\	.	2c/	.
*	*	*	*	*custos:b-	*	*	*
!	!	!LO:LB:g=original	!	!	!	!	!
.	.	1G	-re	2g\	-re	1d	-os
*	*	*	*Xij	*	*Xij	*	*ij
!	!	!	!	!LO:LB:g=original	!	!	!
.	.	.	.	1b-	.	.	.
!	!	!	!	!	!	!LO:LB:g=original	!
=159	=159	=159	=159	=159	=159	=159	=159
0ryy	.	1.d	ui-	.	.	1.f	iu-
.	.	.	.	4a\	ui-	.	.
.	.	.	.	4g\	.	.	.
.	.	.	.	1.a	-uos,	.	.
.	.	2c/	-uos,	.	.	2e/	-di-
=160	=160	=160	=160	=160	=160	=160	=160
0ryy	.	2d\	.	.	.	2f\	  ca-
.	.	2e\	et	2.cc\	et	2g\	.
.	.	2c/	mor-	.	.	2e/	-re
.	.	.	.	4b-\	mor-	.	.
.	.	2.d\	.	4a\	.	2.a\	ui-
.	.	.	.	4g\	.	.	.
=161	=161	=161	=161	=161	=161	=161	=161
0ryy	.	.	.	2f\	.	.	.
.	.	4e\	-tu-	.	.	4g\	.
.	.	2f\	-os,	2a\	.	1f	-uos
.	.	1c	.	1g	-tu-	.	.
.	.	.	.	.	.	2e/	et
=162	=162	=162	=162	=162	=162	=162	=162
0ryy	.	2r	.	1f	-os,	1.f	mor-
.	.	1f	cu-	.	.	.	.
.	.	.	.	1r	.	.	.
.	.	2g\	-ius	.	.	2e/	.
=163	=163	=163	=163	=163	=163	=163	=163
0ryy	.	1a	.	1.f	Cu-	2d/	-tu-
.	.	.	.	.	.	2c/	.
*	*	*	*	*	*	*lig	*
.	.	1d	re-	.	.	1B-	-os
.	.	.	.	2g\	-ius	.	.
*	*	*	*	*	*	*	*Xij
=164	=164	=164	=164	=164	=164	=164	=164
0ryy	.	1e	-gni	1a	.	1A	.
*	*	*	*	*	*	*Xlig	*
.	.	2.f\	non	4d/	re-	1r	.
.	.	.	.	4e/	-gni	.	.
.	.	.	.	4f\	.	.	.
.	.	4e\	.	4g\	.	.	.
=165	=165	=165	=165	=165	=165	=165	=165
*	*	*	*	*custos:f	*	*	*
0ryy	.	4d\	e-	2a\	.	0r	.
*	*	*custos:d	*	*	*	*	*
.	.	4c\	.	.	.	.	.
!	!	!LO:LB:g=original	!	!LO:LB:g=original	!	!	!
.	.	2d\	-rit	2f\	non	.	.
.	.	2.e-X\	fi-	2g\	.	.	.
.	.	.	.	2b-\	e-	.	.
.	.	4d\	.	.	.	.	.
=166	=166	=166	=166	=166	=166	=166	=166
0ryy	.	2c/	.	2a\	-rit	2r	.
*	*	*	*	*	*	*custos:c	*
.	.	2B-/	.	1g	.	1d	cu-
.	.	1A	.	.	.	.	.
!	!	!	!	!	!	!LO:LB:g=original	!
.	.	.	.	2f\	.	2c/	-ius
=167	=167	=167	=167	=167	=167	=167	=167
0ryy	.	0G	-nis,	4g\	fi-	1e-X	re-
.	.	.	.	4f\	.	.	.
.	.	.	.	4g\	.	.	.
.	.	.	.	4a\	.	.	.
.	.	.	.	1b-	-nis;	2d/	-gni
.	.	.	.	.	.	2d/	no(n)
=168	=168	=168	=168	=168	=168	=168	=168
0ryy	.	0r	.	1a	.	4f\	e-
.	.	.	.	.	.	4e\	.
.	.	.	.	.	.	4f\	.
.	.	.	.	.	.	4g\	.
.	.	.	.	1d	non	2a\	.
.	.	.	.	.	.	2b-\	-rit
=169	=169	=169	=169	=169	=169	=169	=169
0ryy	.	2r	.	2c/	e-	2a\	fi-
.	.	1d	cu-	2B-/	-rit	2.g\	-nis;
.	.	.	.	1A	fi-	.	.
.	.	.	.	.	.	8f/L	.
.	.	.	.	.	.	8e/J	.
.	.	2c/	-ius	.	.	2f\	.
=170	=170	=170	=170	=170	=170	=170	=170
*	*	*	*	*	*	*custos:g	*
0ryy	.	1e-X	re-	0G	-nis,	[0gl	.
.	.	1d	-gni	.	.	.	.
!	!	!	!	!	!	!LO:LB:g=original	!
=171	=171	=171	=171	=171	=171	=171	=171
0ryy	.	2r	.	1e-X	no(n)	0g_	.
.	.	2c/	non	.	.	.	.
*	*	*	*	*custos:B-	*	*	*
.	.	2e-X\	e-	2c/	e-	.	.
!	!	!	!	!LO:LB:g=original	!	!	!
.	.	2d\	-rit	2B-/	-rit	.	.
=172	=172	=172	=172	=172	=172	=172	=172
0ryy	.	1.c	.	1.e-X	fi-	0g_	.
.	.	2G/	fi-	2d/	.	.	.
=173	=173	=173	=173	=173	=173	=173	=173
*	*	*custos:G	*	*	*	*	*
0ryy	.	0G	-nis,	0d;	-nis,	0g]	.
!	!	!LO:LB:g=original	!	!	!	!	!
=174	=174	=174	=174	=174	=174	=174	=174
1G	Et	0r	.	0r	.	00g	Et
2G/	in	.	.	.	.	.	.
2A/	ſpi-	.	.	.	.	.	.
=175	=175	=175	=175	=175	=175	=175	=175
2B-\	-ri-	0r	.	1G	Et	.	.
2G/	-tum	.	.	.	.	.	.
2B-\	ſan-	.	.	2G/	in	.	.
2c\	.	.	.	2A/	ſpi-	.	.
=176	=176	=176	=176	=176	=176	=176	=176
2d\	-ctum	1G	Et	2B-/	-ri-	0g	in
1B-	.	.	.	2G/	-tum	.	.
.	.	2G/	in	2B-/	ſan-	.	.
2A/	do-	2A/	ſpi-	2c/	-ctu(m)	.	.
=177	=177	=177	=177	=177	=177	=177	=177
2.G/	-mi-	2B-/	  ri-	1d	do-	1.g	ſpi-
.	.	2G/	-tum	.	.	.	.
4F/	-num,	.	.	.	.	.	.
*lig	*	*	*	*	*	*	*
1E-X	.	2B-/	.	1G	-mi-	.	.
.	.	2c/	ſanc-	.	.	2g\	-ri-
=178	=178	=178	=178	=178	=178	=178	=178
*	*	*	*	*custos:b-	*	*	*
1D	.	2.d\	.	1A	-nu(m)	1f	-tum
.	.	4c/	-tum	.	.	.	.
*Xlig	*	*	*	*	*	*	*
!	!	!	!	!LO:LB:g=original	!	!	!
1r	.	4d/	.	1.B-	do-	2r	.
.	.	4e\	.	.	.	.	.
.	.	2.f\	do-	.	.	1d	ſan-
=179	=179	=179	=179	=179	=179	=179	=179
0r	.	.	.	.	.	.	.
.	.	4e\	-mi-	.	.	.	.
.	.	1d	-num,	2B-/	-mi-	2d/	-ctu(m)
.	.	.	.	00A	-nu(m),	2e/	do-
.	.	2c/	.	.	.	2e/	-mi-
=180	=180	=180	=180	=180	=180	=180	=180
1D	et	2d/	.	.	.	2f\	-nu(m)
.	.	1f	.	.	.	1a	et
2D/	ui-	.	.	.	.	.	.
2E/	-ui-	2e\	et	.	.	2g\	ui-
=181	=181	=181	=181	=181	=181	=181	=181
2F/	-fi-	2c/	ui-	.	.	2f\	-ui-
*custos:F	*	*	*	*	*	*	*
2D/	.	2.f\	-ui-	.	.	2.a\	-fi-
!LO:LB:g=original	!	!	!	!	!	!	!
2.F/	-can-	.	.	1r	.	.	.
*	*	*custos:d	*	*	*	*	*
.	.	4e\	-fi-	.	.	4g\	.
*	*	*	*	*	*	*custos:e	*
!	!	!LO:LB:g=original	!	!	!	!	!
.	.	1d	.	.	.	2f\	.
4G/	.	.	.	.	.	.	.
!	!	!	!	!	!	!LO:LB:g=original	!
=182	=182	=182	=182	=182	=182	=182	=182
1A	-tem,	.	.	1r	.	1e	.
.	.	2c/	.	.	.	.	.
1r	.	2.d\	-can-	1d	et	2d/	.
.	.	.	.	.	.	1f	-can-
.	.	8c/L	.	.	.	.	.
.	.	8B-/J	.	.	.	.	.
=183	=183	=183	=183	=183	=183	=183	=183
1r	.	00A	-tem,	2d/	ui-	.	.
.	.	.	.	2e/	.	2g\	-te(m);
*	*ij	*	*	*	*	*	*
1D	et	.	.	2f\	-ui-	0a	.
.	.	.	.	2d/	.	.	.
=184	=184	=184	=184	=184	=184	=184	=184
2D/	ui-	.	.	2f\	.	.	.
2E/	-ui-	.	.	2g\	.	.	.
2F/	-fi-	.	.	1a	-fi-	2r	.
*	*	*	*	*	*	*	*ij
2D/	.	.	.	.	.	2.f/	et
=185	=185	=185	=185	=185	=185	=185	=185
2F/	-can-	0r	.	00.a	-ca(n)-	.	.
.	.	.	.	.	.	4e/	ui-
2G/	.	.	.	.	.	2.d/	-ui-
1A	.	.	.	.	.	.	.
.	.	.	.	.	.	8c/L	-fi-
.	.	.	.	.	.	8B-/J	.
.	.	.	.	.	.	2c/	.
=186	=186	=186	=186	=186	=186	=186	=186
1D	-tem	1r	.	.	.	1d	-can-
2r	.	1f	qui	.	.	1d	-te(m)
*	*Xij	*	*	*	*	*	*Xij
2d\	qui	.	.	.	.	.	.
=187	=187	=187	=187	=187	=187	=187	=187
2c\	ex	2e\	ex	.	.	2A/	qui
2d\	pa-	2d\	pa-	.	.	2f/	ex
2A/	-tre	2c/	-tre	.	.	2e/	p(at)-
2d\	fi-	2f\	fi-	.	.	2d/	-re
=188	=188	=188	=188	=188	=188	=188	=188
*custos:d	*	*	*	*	*	*custos:f	*
2c\	-li-	2e\	  li-	1a	-te(m),	2e/	fi-
!LO:LB:g=original	!	!	!	!	!	!LO:LB:g=original	!
2d\	-o-	2d\	-o-	.	.	2f/	-lio-
2A/	-q(ue)	2c/	-q(ue)	1r	.	2e/	-q(ue)
2A/	pro-	2e\	pro-	.	.	2a\	.
=189	=189	=189	=189	=189	=189	=189	=189
1B-	-ce-	1d	-ce-	2r	.	4f\	pro-
.	.	.	.	.	.	4e\	.
.	.	.	.	2d/	ui	4f\	-ce-
.	.	.	.	.	.	4g\	-dit,
1A	-dit,	1c	-dit,	2e/	cu(m)	1a	.
*	*	*	*	*custos:d	*	*	*
.	.	.	.	2c/	pa-	.	.
!	!	!	!	!LO:LB:g=original	!	!	!
=190	=190	=190	=190	=190	=190	=190	=190
1D	qui	1f	qui	1d	-tre,	2r	.
.	.	.	.	.	.	2a\	qui
2G/	cu(m)	2d\	cu(m)	1r	.	2b-\	cu(m)
*	*	*custos:f	*	*	*	*	*
2E/	p(at)-	2e\	pa-	.	.	2g\	p(at)-
!	!	!LO:LB:g=original	!	!	!	!	!
=191	=191	=191	=191	=191	=191	=191	=191
1D	-re,	2f\	-tre,	2r	.	2a\	-re
.	.	2d\	et	2a\	et	2f\	et
1r	.	2B-/	fi-	2b-\	fi-	2g\	fi-
.	.	2c/	-li-	2g\	-li-	2e/	-li-
=192	=192	=192	=192	=192	=192	=192	=192
0D	ſi-	1A	-o,	2a\	-o	1f	-o;
.	.	.	.	1a	ſi-	.	.
*	*	*	*	*	*	*custos:B-	*
.	.	1f	ſi-	.	.	1d	ſi-
.	.	.	.	2a\	-mul	.	.
!	!	!	!	!	!	!LO:LB:g=original	!
=193	=193	=193	=193	=193	=193	=193	=193
1.G	-mul	1d	-mul	1.b-	a-	2.B-/	-mul
.	.	.	.	.	.	4c/	.
.	.	2B-/	a-	.	.	4d/	.
.	.	.	.	.	.	4B-/	.
2F/	a-	2.f\	-do-	2.a\	-do-	2c/	a
=194	=194	=194	=194	=194	=194	=194	=194
1D	-do-	.	.	.	.	1d	do
.	.	4e\	-ra-	4g\	-ra-	.	.
.	.	2.d\	-tur,	1f	-tur,	.	.
*	*	*	*	*	*	*lig	*
1G	-ra-	.	.	.	.	1B-	ra-
.	.	4c/	.	.	.	.	.
.	.	1B-	.	2e/	.	.	.
=195	=195	=195	=195	=195	=195	=195	=195
1F	-tur,	.	.	1f	.	1c	.
.	.	2A/	.	.	.	.	.
*	*	*	*	*	*	*Xlig	*
2r	.	1B-	.	2r	.	1d	-tur
1B-	et	.	.	1g	et	.	.
=196	=196	=196	=196	=196	=196	=196	=196
.	.	1r	.	.	.	1r	.
*custos:d	*	*	*	*	*	*	*
2c\	con-	.	.	2a\	con-	.	.
!LO:LB:g=original	!	!	!	!	!	!	!
2.d\	-glo-	2r	.	2.b-\	-glo-	2r	.
.	.	1B-	et	.	.	1g	et
*	*	*	*	*custos:g	*	*	*
4c\	-ri-	.	.	4a\	ri -	.	.
!	!	!	!	!LO:LB:g=original	!	!	!
=197	=197	=197	=197	=197	=197	=197	=197
2B-\	-fi-	.	.	2g\	-fi-	.	.
2A/	-ca-	2c/	con-	2f\	-ca-	2a\	con-
1G	-tur,	2.d/	-glo-	1g	-tur,	2.b-\	-glo-
*	*	*custos:B-	*	*	*	*	*
.	.	4c/	-ri-	.	.	4a\	-ri-
!	!	!LO:LB:g=original	!	!	!	!	!
=198	=198	=198	=198	=198	=198	=198	=198
2r	.	2B-/	-fi-	2r	.	2g\	-fi-
2D/	qui	2A/	-ca-	2a\	qui	2f/	-ca-
1G	lo-	2G/	-tur	1b-	lo-	2g\	-t(ur)
.	.	1B-	qui	.	.	1d	qui
=199	=199	=199	=199	=199	=199	=199	=199
1.G	-cu-	.	.	1.b-	-cu-	.	.
.	.	2B-/	lo-	.	.	2d/	lo-
.	.	2B-/	-cu-	.	.	2d/	-cu-
2G/	-tus	2B-/	-tus	2b-\	-tus	2d/	-tus
=200	=200	=200	=200	=200	=200	=200	=200
1F	eſt	1c	eſt	1a	eſt	0f	eſt
1D	per	1d	per	2r	.	.	.
.	.	.	.	2.a\	per	.	.
=201	=201	=201	=201	=201	=201	=201	=201
2G/	pro-	2B-/	pro-	.	.	2d/	p(er)
.	.	.	.	4g\	.	.	.
2C/	.	2c/	.	1g	pro-	2e/	p(ro)-
1D	-phe-	1A	-phe-	.	.	0.d	-phe-
.	.	.	.	2f\	-phe-	.	.
=202	=202	=202	=202	=202	=202	=202	=202
0G	-tas,	00G	-tas	1g	-tas,	.	.
.	.	.	.	2r	.	.	.
.	.	.	.	2g\	Et	.	.
=203	=203	=203	=203	=203	=203	=203	=203
2r	.	.	.	2g\	v-	1d	-tas;
*	*	*	*	*custos:b-	*	*	*
2G/	Et	.	.	2g\	-nam	.	.
!	!	!	!	!LO:LB:g=original	!	!	!
2G/	u-	.	.	2.b-\	ſanc-	2r	.
*custos:B-	*	*	*	*	*	*	*
2G/	-nam	.	.	.	.	2d/	et
.	.	.	.	8a\L	.	.	.
.	.	.	.	8g\J	.	.	.
!LO:LB:g=original	!	!	!	!	!	!	!
=204	=204	=204	=204	=204	=204	=204	=204
2.B-\	ſanc-	0r	.	2f\	-tam	2d/	u-
.	.	.	.	2g\	ca-	2d/	-nam
8A/L	.	.	.	.	.	.	.
8G/J	.	.	.	.	.	.	.
1.F	-tam-	.	.	2a\	-tho-	2f\	ſan-
.	.	.	.	2a\	-li-	4e/	.
.	.	.	.	.	.	4d/	.
=205	=205	=205	=205	=205	=205	=205	=205
.	.	2r	.	1a	-ca(m),	2c/	-cta(m)
2D/	-ca-	2d\	et	.	.	2d/	ca-
2G/	-tho-	2d\	a-	2r	.	2B-/	-tho-
*	*	*custos:f	*	*	*	*	*
2G/	-li-	2d\	-po-	2g\	et	2B-/	-li-
!	!	!LO:LB:g=original	!	!	!	!	!
=206	=206	=206	=206	=206	=206	=206	=206
*	*	*	*	*	*	*custos:d	*
1D	-ca(m),	2.f\	-ſto-	2a\	a-	2A/	-ca(m)
!	!	!	!	!	!	!LO:LB:g=original	!
.	.	.	.	2f\	-po-	2d/	et
.	.	8e\L	-li-	.	.	.	.
.	.	8d\J	.	.	.	.	.
1r	.	2c/	-cam	2g\	-ſto-	2e/	a-
.	.	2c/	.	2a\	-li-	2e/	-po-
=207	=207	=207	=207	=207	=207	=207	=207
1r	.	2d/	.	2b-\	-cam	2f\	-ſto-
.	.	2A/	ec-	2a\	ec-	4e/	-li-
.	.	.	.	.	.	4d/	-cam
2r	.	2c/	-cle-	2g\	-cle-	2e/	.
2d\	et	2d/	-ſi-	2f\	-ſi-	1a	ec-
=208	=208	=208	=208	=208	=208	=208	=208
*	*	*	*	*lig	*	*	*
2d\	a-	1A	-am,	1e	-am,	.	.
2c\	-po-	.	.	.	.	1a	-cle-
2.d\	-ſto-	0f	Con-	1d	.	.	.
.	.	.	.	.	.	2a\	-ſi-
8c\L	-li-	.	.	.	.	.	.
8B-\J	.	.	.	.	.	.	.
*	*	*	*	*Xlig	*	*	*
=209	=209	=209	=209	=209	=209	=209	=209
2A/	-cam	.	.	1r	.	1a	-am;
2F/	ec-	.	.	.	.	.	.
2c\	-cle-	2e\	-fi-	2r	.	2r	.
*	*	*	*	*custos:d	*	*	*
2d\	-ſi-	2d/	-te-	2d/	Co(n)-	2a\	Con -
!	!	!	!	!LO:LB:g=original	!	!	!
=210	=210	=210	=210	=210	=210	=210	=210
*custos:d	*	*	*	*	*	*	*
1A	-am,	1e	-or,	2d/	-fi-	2a\	-fi-
.	.	.	.	2c/	-te-	2a\	-te-
!LO:LB:g=original	!	!	!	!	!	!	!
1r	.	1r	.	1d	-or	2f\	-or
.	.	.	.	.	.	2f\	u-
=211	=211	=211	=211	=211	=211	=211	=211
1d	Con-	1r	.	1f	v-	1b-	-num
2c\	-fi-	2r	.	2e/	-num	2a\	bap-
*	*	*	*	*	*	*custos:a	*
2B-\	-te-	2d/	con-	2d/	.	2g\	-ti-
!	!	!	!	!	!	!LO:LB:g=original	!
=212	=212	=212	=212	=212	=212	=212	=212
1A	-or	2d/	-fi-	1e	bap-	1a	-ſma;
.	.	2c/	-te-	.	.	.	.
1G	u-	2d/	-or	1g	-ti-	1r	.
*	*	*custos:A	*	*	*	*	*
.	.	2B-/	v-	.	.	.	.
!	!	!LO:LB:g=original	!	!	!	!	!
=213	=213	=213	=213	=213	=213	=213	=213
2F/	-num	2A/	-num	2a\	.	1r	.
2G/	bap-	2.d\	.	2b-\	.	.	.
1E	-tiſ-	.	.	1g	.	2r	.
.	.	4c/	.	.	.	.	.
.	.	4c/	.	.	.	1g	in-
.	.	4B-/	.	.	.	.	.
=214	=214	=214	=214	=214	=214	=214	=214
1D	-ma,	2d\	bap-	1a	-ſma,	.	.
.	.	2d\	-tiſ-	.	.	2f\	-re-
1r	.	2e-X\	-ma	1r	.	2.g\	-mi-
.	.	4d\	.	.	.	.	.
.	.	4c\	.	.	.	4a\	.
=215	=215	=215	=215	=215	=215	=215	=215
2r	.	2B-/	.	0r	.	1b-	-ſsi-
1G	in	1d	in	.	.	.	.
.	.	.	.	.	.	1a	-o-
2F/	re-	2f\	re-	.	.	.	.
=216	=216	=216	=216	=216	=216	=216	=216
2G/	-miſ-	1e-X	-miſ-	1r	.	2b-\	-nem
2A/	-si-	.	.	.	.	2a\	pec-
1B-	-o-	2d\	-si-	2r	.	1g	-ca-
.	.	2.g\	-o-	1d	in	.	.
=217	=217	=217	=217	=217	=217	=217	=217
1A	-ne(m)	.	.	.	.	1a	.
.	.	8f\L	-nem	.	.	.	.
.	.	8e\J	.	.	.	.	.
*	*	*custos:g	*	*	*	*	*
.	.	2f\	.	2c/	.	.	.
!	!	!LO:LB:g=original	!	!	!	!	!
1G	pec-	1g	.	2.d/	re-	1b-	.
.	.	.	.	4e/	-miſ-	.	.
=218	=218	=218	=218	=218	=218	=218	=218
2F/	-ca-	2c/	pec-	2f/	-si-	1.a	.
2D/	-to-	2.d/	-ca-	2.f/	-o-	.	.
*custos:G	*	*	*	*	*	*	*
2F/	-rum-	.	.	.	.	.	.
.	.	4c/	.	4e/	.	.	.
!LO:LB:g=original	!	!	!	!	!	!	!
1G	.	4B-/	.	4d/	.	1b-	.
*	*	*	*	*custos:b-	*	*	*
.	.	4A/	.	4c/	.	.	.
!	!	!	!	!LO:LB:g=original	!	!	!
=219	=219	=219	=219	=219	=219	=219	=219
.	.	2G/	.	2B-/	.	.	.
2F/	.	2A/	.	2c/	-nem	4a\	.
.	.	.	.	.	.	4g\	.
*	*	*	*	*	*	*custos:cc	*
2B-\	.	2B-/	.	2d/	pec-	2f\	.
!	!	!	!	!	!	!LO:LB:g=original	!
2A/	.	2c/	.	1f	-ca-	2.cc\	.
=220	=220	=220	=220	=220	=220	=220	=220
*lig	*	*	*	*	*	*	*
1G	.	2d/	.	.	.	.	.
.	.	.	.	.	.	4b-\	.
.	.	2B-/	-to-	2e/	-to-	1b-	.
1F	.	1c	-ru(m),	1f	-ru(m),	.	.
.	.	.	.	.	.	2a\	-to-
*Xlig	*	*	*	*	*	*	*
=221	=221	=221	=221	=221	=221	=221	=221
0B-	.	1r	.	2r	.	0b-	-rum
.	.	.	.	1f	et	.	.
.	.	1B-	et	.	.	.	.
.	.	.	.	1g	ex-	.	.
=222	=222	=222	=222	=222	=222	=222	=222
0r	.	1c	ex-	.	.	1r	.
.	.	.	.	1a	-pec-	.	.
.	.	1d	-pec-	.	.	1f	Et
.	.	.	.	2d/	-to,	.	.
=223	=223	=223	=223	=223	=223	=223	=223
1r	.	1G	-to,	2r	.	1g	ex-
*	*	*	*	*	*ij	*	*
.	.	.	.	2e/	et	.	.
1F	-et	1r	.	2f\	ex-	1a	-pec-
.	.	.	.	2a\	.	.	.
=224	=224	=224	=224	=224	=224	=224	=224
*	*	*	*ij	*	*	*	*
1G	ex-	1B-	et	2.g\	-pec-	1d	-to
.	.	.	.	4f\	.	.	.
*	*	*custos:d	*	*	*	*	*
1A	-pec-	1c	ex-	1e	-to	1a	re-
!	!	!LO:LB:g=original	!	!	!	!	!
=225	=225	=225	=225	=225	=225	=225	=225
2D/	-to	1d	-pec-	2r	.	2f\	-ſur-
2.G/	.	.	.	2d/	et	2.g\	-rec-
.	.	2G/	-to	4e/	ex-	.	.
4F/	.	.	.	4d/	.	4a\	-ti-
*	*	*	*	*custos:c	*	*	*
4E-X/	.	1G	.	1d	-pec-	1b-	-o-
4D/	.	.	.	.	.	.	.
!	!	!	!	!LO:LB:g=original	!	!	!
=226	=226	=226	=226	=226	=226	=226	=226
1E	.	.	.	.	.	.	.
.	.	2G/	.	2c/	.	4a\	-nem
.	.	.	.	.	.	4g\	.
*	*	*	*	*	*	*custos:g	*
1D	.	2B-/	.	1d	-to	0f	.
*	*	*	*	*	*Xij	*	*
.	.	4A/	.	.	.	.	.
.	.	4G/	.	.	.	.	.
!	!	!	!	!	!	!LO:LB:g=original	!
=227	=227	=227	=227	=227	=227	=227	=227
1r	.	1F	.	2r	.	.	.
.	.	.	.	1a	re-	.	.
*	*	*	*Xij	*	*	*	*
1.d	re-	1.f	re-	.	.	1r	.
.	.	.	.	2g\	-ſur-	.	.
=228	=228	=228	=228	=228	=228	=228	=228
.	.	.	.	1.f	-rec-	0r	.
2c\	-ſu-	2e\	-ſur-	.	.	.	.
1.B-	-rec-	1.d	rec -	.	.	.	.
.	.	.	.	2e/	-ti-	.	.
=229	=229	=229	=229	=229	=229	=229	=229
.	.	.	.	1.d	-o-	0r	.
*custos:G	*	*	*	*	*	*	*
2A/	-ti-	2c/	-ti-	.	.	.	.
!LO:LB:g=original	!	!	!	!	!	!	!
1.G	-o-	1.B-	-o-	.	.	.	.
.	.	.	.	2c/	-nem	.	.
=230	=230	=230	=230	=230	=230	=230	=230
.	.	.	.	1B-	.	0r	.
2F/	-nem	2A/	-nem	.	.	.	.
2E-X/	.	2G/	.	2c/	mor-	.	.
2D/	mor-	2F/	.	1d	-tu-	.	.
=231	=231	=231	=231	=231	=231	=231	=231
*	*	*lig	*	*	*	*	*
1E	-tu-	1G	mor-	.	.	2r	.
.	.	.	.	2c/	-o-	1g	.
2D/	-o-	1A	.	0d	-ru(m),	.	.
2D/	-rum	.	.	.	.	2f\	mor-
*	*	*Xlig	*	*	*	*	*
=232	=232	=232	=232	=232	=232	=232	=232
0G	.	4G/	-tu-	.	.	2.g\	-tu-
.	.	4A/	-o-	.	.	.	.
.	.	4B-/	.	.	.	.	.
*	*	*custos:d	*	*	*	*	*
.	.	4c/	.	.	.	4a\	-o-
!	!	!LO:LB:g=original	!	!	!	!	!
.	.	2.d\	.	1r	.	1b-	.
.	.	4c/	.	.	.	.	.
=233	=233	=233	=233	=233	=233	=233	=233
1D	.	4d\	.	1r	.	1a	.
.	.	4e\	.	.	.	.	.
.	.	2.f\	.	.	.	.	.
1r	.	.	.	2r	.	2g\	.
.	.	4e\	.	.	.	.	.
.	.	1d	.	2d/	et	2f\	.
=234	=234	=234	=234	=234	=234	=234	=234
1r	.	.	.	1g	ui-	1e	.
.	.	2c/	-rum	.	.	.	.
2r	.	1d	.	2f\	-tam	0d	-rum,
2D/	Et	.	.	2d/	ue(n)-	.	.
=235	=235	=235	=235	=235	=235	=235	=235
*	*	*	*	*custos:a	*	*	*
1G	ui-	1B-	.	1b-	-tu-	.	.
!	!	!	!	!LO:LB:g=original	!	!	!
2F/	-tam	2c/	.	2a\	-ri	2r	.
2D/	.	2.d/	.	1A	ſe-	2d/	Et
=236	=236	=236	=236	=236	=236	=236	=236
1E	uen-	.	.	.	.	1g	ui-
.	.	8c/L	.	.	.	.	.
.	.	8B-/J	.	.	.	.	.
.	.	2c/	.	2G/	-cu-	.	.
2D/	.	1d	.	2A/	-li	2f\	-tam
2.d\	-tu-	.	.	2B-/	A-	2d/	uen-
=237	=237	=237	=237	=237	=237	=237	=237
.	.	2r	.	1A	-me(n),	1e	-tu-
8c\L	-ri	.	.	.	.	.	.
8B-\J	ſe-	.	.	.	.	.	.
2c\	-cu-	2A/	et	.	.	.	.
*custos:D	*	*	*	*	*	*	*
2d\	-li,	1d	vi-	1r	.	2d/	-ri
!LO:LB:g=original	!	!	!	!	!	!	!
2r	.	.	.	.	.	1f	ſe-
=238	=238	=238	=238	=238	=238	=238	=238
2r	.	2c/	-tam	2r	.	.	.
*	*	*	*	*	*	*custos:d	*
2D/	Et	2A/	ue(n)-	2.a\	et	2f\	-cu-
*	*	*custos:A	*	*	*	*	*
!	!	!	!	!	!	!LO:LB:g=original	!
1G	ui-	1B-	-tu-	.	.	2d/	-li
.	.	.	.	4g\	ui-	.	.
.	.	.	.	2g\	-tam	2B-/	a-
!	!	!LO:LB:g=original	!	!	!	!	!
=239	=239	=239	=239	=239	=239	=239	=239
2F/	.	2A/	-ri-	2a\	.	2c/	.
2D/	-tam	1d	-ſe-	2f/	uen-	2d/	.
1E	.	.	.	1g	-tu-	1G	.
.	.	2c/	-cu-	.	.	.	.
=240	=240	=240	=240	=240	=240	=240	=240
2D/	uen-	2A/	-li	4f\	-ri	1d	-men:
.	.	.	.	4e/	.	.	.
1G	.	1B-	A-	4d/	.	.	.
.	.	.	.	4c/	.	.	.
.	.	.	.	2B-/	.	2r	.
2F/	-tu-	4A/	-men;	2c/	ſe-	2.f\	ſe-
.	.	4G/	.	.	.	.	.
=241	=241	=241	=241	=241	=241	=241	=241
4D/	-ri	1F	.	1d	-cu-	.	.
4E/	ſe-	.	.	.	.	4g\	-cu-
4F/	.	.	.	.	.	4a\	-li
4D/	-cu-	.	.	.	.	4f\	.
*	*	*	*	*custos:d	*	*	*
4E/	-li	2r	.	2G/	-li,	4g\	.
4F/	.	.	.	.	.	4a\	.
!	!	!	!	!LO:LB:g=original	!	!	!
1G	.	1B-	ſe-	2.d/	A-	1b-	.
=242	=242	=242	=242	=242	=242	=242	=242
.	.	.	.	.	.	.	.
.	.	.	.	4e/	.	.	.
2F/	A-	2c/	-cu-	2.f\	.	2.a\	A-
1D	.	2d\	-li	.	.	.	.
.	.	.	.	4g\	.	4g\	.
.	.	4c/	.	2a\	.	4f\	.
*	*	*	*	*	*	*custos:d	*
.	.	4B-/	.	.	.	4e/	.
!	!	!	!	!	!	!LO:LB:g=original	!
=243	=243	=243	=243	=243	=243	=243	=243
1D	-men.	2A/	.	1f	.	4d/	.
.	.	.	.	.	.	4c/	.
.	.	2d\	A-	.	.	4B-/	.
.	.	.	.	.	.	4A/	.
2E-X/	.	2B-/	.	2e-X/	.	2G/	-men
2C/	.	2c/	.	2e-/	.	1g	.
=244	=244	=244	=244	=244	=244	=244	=244
*	*	*	*	*col	*	*	*
0D	.	0A	.	1.d	.	.	.
.	.	.	.	.	.	4f\	A-
.	.	.	.	.	.	4e\	.
.	.	.	.	.	.	1f	.
.	.	.	.	8d/L	.	.	.
.	.	.	.	8c/	.	.	.
.	.	.	.	8B-/	.	.	.
.	.	.	.	8A/J	.	.	.
*	*	*	*	*Xcol	*	*	*
=245	=245	=245	=245	=245	=245	=245	=245
0G;\ll	.	0Gll	-men;	0B-ll	-men	0gll	-men
==	==	==	==	==	==	==	==
*-	*-	*-	*-	*-	*-	*-	*-
!!!system-decoration: [*]
!!!RDF**kern: l = terminal long
!!!ENC: Mateusz Solarz
!!!END: 2022-02-04
!!!ENC: Jan Barakat
!!!END: 2022-02-11
